;FLAVOR:Marlin
;TIME:1163
;Filament used:0.461201m
;Layer height: 0.16
;MINX:115.508
;MINY:116.7
;MINZ:0.16
;MAXX:164.492
;MAXY:143.3
;MAXZ:8.96
                              
;Creality Print GCode Generated by CXEngine:NO_MAGE_VERSION_GIT_HEAD_BRANCH
;CXEngine Release Time:2022-09-30 09:53:04
;Gcode Generated Time:2023-03-21 16:32:33
;----------Machine Config--------------
;Machine Name:Sermoon D1
;Machine Height:310
;Machine Width:280
;Machine Depth:260
;Material name:PLA
;Number of Extruders:1
;ExtruderParams[0] Nozzle Diameter1000
;----------Profile Config---------------
;Engine Version:275f99b
;Engine Release Time:2022-09-30 09:42:18
;Layer Height:0.16
;Wall Thickness:1.2
;Top/Bottom Thickness:0.64
;Out Wall Line Width:0.4
;Inner Wall Line Width:0.4
;Inital Layer Height:160
;Wall Line Count:3
;Infill Line Distance:12
;Infill Pattern:grid
;Infill Sparse Density:10
;Infill Wipe Distance:0
;Print Temperature:215
;Bed Temperature:60
;Support Enable:true
;Support Density:30
;Support Angle:53
;Adhesion Type:brim
;machine is belt:false
;machine belt offset:10
;machine belt offset Y:0
;Raft Base Line Spacing:1.6
;Wait Heatup Sync:true
;----------Shell Config----------------
;Outer Wall Wipe Distance:200
;Outer Inset First:false
;Infill Before Walls:false
;Infill Overlap:0.16
;Fill Gaps Between Walls:everywhere
;Minimum Infill Area:0
;Top Surface Skin Layer:0
;Top Layers:4
;Z Seam Alignment:sharpest_corner
;Seam Corner Preference:z_seam_corner_inner
;Z Seam X:140
;Z Seam Y:130
;Horizontal Expansion:0
;Top/Bottom Pattern:zigzag
;Ironing Pattern:zigzag
;Vase Model:false
;----------Support Config----------------
;Support Type:everywhere
;Support Pattern:zigzag
;Support Infill Layer Thickness:0.16
;Minimum Support Area:5
;Enable Support Roof:false
;Support Roof Thickness:0.9
;Support Roof Pattern:lines
;Connect Support Lines:0
;Connect Support ZigZags:1
;Minimum Support X/Y Distance:0.2
;Support Line Distance:1.33
; ---------PrintSpeed & Travel----------
;Enable Print Cool:true
;Avoid Printed Parts Traveling:true
;Enable Retraction:true
;Retraction Distance:0.8
;Retraction Speed:80
;Retraction Prime Speed:80
;Maximum Retraction Count:100
;Minimum Extrusion Distance Window:1
;Z Hop When Retracted:false
;Z Hop Height:0.2
;Retract Before Outer Wall:true
;Print Speed:50
;Infill Speed:50

;Prime Tower Speed:50
;Travel Speed:120
;Initial Layer Speed:25
;Skirt/Brim Speed:25
;Combing Mode:infill
; --------SpecialModel&Mesh Fixes--------
;Union Overlapping Volum:true
;Remove All Holes:false
;Maximum Travel Resolution:0.6
;Maximum Deviation:0.05
;Maximum Model Angle:0.872665
;IS Mold Print:false
;Make Overhang Printable:false
;Enable Coasting:false
;Coasting Volumes:0.06
;Coasting Speed:0.9
;Raft AirGap:0.25
;Layer0 ZOverLap:0.13
;---------------------End of Head--------------------------
M140 S60
M105
M104 S215
M105
M109 S215
M105
M190 S60
M82 ;absolute extrusion mode
M220 S100 ;Reset Feedrate
M221 S100 ;Reset Flowrate

G28 ;Home

G92 E0 ;Reset Extruder
G1 Z2.0 F3000 ;Move Z Axis up
G1 X10.1 Y20 Z0.28 F5000.0 ;Move to start position
G1 X10.1 Y145.0 Z0.28 F1500.0 E15 ;Draw the first line
G1 X10.4 Y145.0 Z0.28 F5000.0 ;Move to side a little
G1 X10.4 Y20 Z0.28 F1500.0 E30 ;Draw the second line
G92 E0  ;Reset Extruder
G1 E-1.0000 F1800 ;Retract a bit
G1 Z2.0 F3000 ;Move Z Axis up
G1 E0.0000 F1800 

G92 E0
G92 E0
G1 F4800 E-0.8

;LAYER_COUNT:56

;LAYER:0
M107
G0 F3600 X119.9 Y120.139 Z0.16
;TYPE:SKIRT
G1 F4800 E0
G1 F1500 X120.493 Y119.618 E0.0231
G1 X121.693 Y118.77 E0.06611
G1 X122.365 Y118.355 E0.08923
G1 X123.884 Y117.656 E0.13817
G1 X124.622 Y117.376 E0.16127
G1 X125.874 Y117.033 E0.19927
G1 X126.646 Y116.869 E0.22237
G1 X128.194 Y116.725 E0.26787
G1 X128.779 Y116.703 E0.28501
G1 X151.318 Y116.7 E0.9447
G1 X152.127 Y116.742 E0.96841
G1 X153.02 Y116.835 E0.99469
G1 X153.8 Y116.956 E1.01779
G1 X155.314 Y117.366 E1.0637
G1 X156.061 Y117.62 E1.08679
G1 X157.474 Y118.288 E1.13254
G1 X158.164 Y118.672 E1.15565
G1 X159.373 Y119.522 E1.19891
G1 X159.989 Y120.016 E1.22202
G1 X161.115 Y121.154 E1.26887
G1 X161.632 Y121.751 E1.29199
G1 X162.464 Y122.95 E1.3347
G1 X162.871 Y123.626 E1.3578
G1 X163.495 Y124.956 E1.4008
G1 X163.785 Y125.69 E1.4239
G1 X164.212 Y127.298 E1.47259
G1 X164.363 Y128.073 E1.4957
G1 X164.483 Y129.593 E1.54033
G1 X164.492 Y130.382 E1.56343
G1 X164.358 Y131.837 E1.60619
G1 X164.237 Y132.617 E1.62929
G1 X163.862 Y134.028 E1.67203
G1 X163.612 Y134.777 E1.69514
G1 X162.91 Y136.274 E1.74353
G1 X162.528 Y136.965 E1.76664
G1 X161.644 Y138.215 E1.81145
G1 X161.147 Y138.828 E1.83455
G1 X160.095 Y139.871 E1.87791
G1 X159.5 Y140.39 E1.90102
G1 X158.269 Y141.252 E1.945
G1 X157.595 Y141.663 E1.96811
G1 X156.17 Y142.322 E2.01406
G1 X155.433 Y142.605 E2.03717
G1 X153.918 Y143.006 E2.08304
G1 X153.144 Y143.16 E2.10614
G1 X152.009 Y143.271 E2.13951
G1 X151.34 Y143.3 E2.15911
G1 X128.665 Y143.3 E2.82279
G1 X127.885 Y143.261 E2.84565
G1 X127.039 Y143.176 E2.87053
G1 X126.259 Y143.057 E2.89363
G1 X124.751 Y142.658 E2.93928
G1 X124.002 Y142.408 E2.96239
G1 X122.831 Y141.877 E3.00003
G1 X122.134 Y141.506 E3.02314
G1 X120.985 Y140.747 E3.06344
G1 X120.353 Y140.274 E3.08655
G1 X119.348 Y139.346 E3.12658
G1 X118.803 Y138.775 E3.14969
G1 X117.837 Y137.509 E3.1963
G1 X117.4 Y136.852 E3.21939
G1 X116.63 Y135.335 E3.26918
G1 X116.321 Y134.608 E3.29231
G1 X116.092 Y133.876 E3.31475
G1 X115.812 Y132.796 E3.34741
G1 X115.652 Y132.022 E3.37054
G1 X115.517 Y130.341 E3.4199
G1 X115.508 Y129.551 E3.44303
G1 X115.659 Y128.03 E3.48776
G1 X115.786 Y127.25 E3.51089
G1 X116.179 Y125.842 E3.55368
G1 X116.44 Y125.096 E3.57681
G1 X117.081 Y123.737 E3.62079
G1 X117.46 Y123.045 E3.64388
G1 X118.355 Y121.788 E3.68905
G1 X118.855 Y121.177 E3.71216
G1 X119.9 Y120.139 E3.75527
G0 F3600 X120.179 Y120.426
G1 F1500 X120.757 Y119.919 E3.77777
G1 X121.92 Y119.099 E3.81942
G1 X122.575 Y118.696 E3.84193
G1 X124.044 Y118.023 E3.88922
G1 X125.111 Y117.649 E3.92232
G1 X125.976 Y117.419 E3.94851
G1 X126.729 Y117.261 E3.97103
G1 X128.224 Y117.124 E4.01497
G1 X128.779 Y117.103 E4.03123
G1 X151.318 Y117.1 E4.69092
G1 X152.086 Y117.14 E4.71343
G1 X152.979 Y117.233 E4.73971
G1 X153.738 Y117.352 E4.76219
G1 X155.204 Y117.751 E4.80666
G1 X155.932 Y118 E4.82918
G1 X157.298 Y118.647 E4.87342
G1 X157.97 Y119.022 E4.89595
G1 X159.139 Y119.846 E4.93781
G1 X159.739 Y120.328 E4.96033
G1 X160.826 Y121.431 E5.00566
G1 X161.329 Y122.013 E5.02817
G1 X162.132 Y123.174 E5.06949
G1 X162.528 Y123.833 E5.09199
G1 X163.131 Y125.122 E5.13365
G1 X163.413 Y125.837 E5.15614
G1 X163.824 Y127.394 E5.20328
G1 X163.97 Y128.149 E5.22578
G1 X164.084 Y129.617 E5.26888
G1 X164.092 Y130.387 E5.29142
G1 X163.96 Y131.795 E5.33281
G1 X163.841 Y132.555 E5.35532
G1 X163.477 Y133.921 E5.3967
G1 X163.232 Y134.65 E5.41921
G1 X162.55 Y136.098 E5.46606
G1 X162.178 Y136.771 E5.48856
G1 X161.321 Y137.979 E5.53191
G1 X160.836 Y138.576 E5.55443
G1 X159.818 Y139.583 E5.59634
G1 X159.237 Y140.088 E5.61887
G1 X158.044 Y140.921 E5.66146
G1 X157.387 Y141.321 E5.68397
G1 X156.008 Y141.957 E5.72842
G1 X155.29 Y142.231 E5.75091
G1 X153.821 Y142.618 E5.79537
G1 X153.066 Y142.767 E5.8179
G1 X151.974 Y142.873 E5.85001
G1 X151.34 Y142.9 E5.86858
G1 X128.665 Y142.9 E6.53226
G1 X127.079 Y142.778 E6.57881
G1 X126.319 Y142.661 E6.60132
G1 X124.858 Y142.272 E6.64557
G1 X124.129 Y142.028 E6.66807
G1 X123.001 Y141.515 E6.70434
G1 X122.016 Y140.958 E6.73746
G1 X121.208 Y140.415 E6.76596
G1 X120.593 Y139.953 E6.78847
G1 X119.623 Y139.055 E6.82716
G1 X119.092 Y138.498 E6.84968
G1 X118.159 Y137.271 E6.8948
G1 X117.733 Y136.63 E6.91733
G1 X116.99 Y135.16 E6.96553
G1 X116.689 Y134.452 E6.98805
G1 X116.479 Y133.775 E7.0088
G1 X116.199 Y132.695 E7.04145
G1 X116.045 Y131.942 E7.06395
G1 X115.916 Y130.316 E7.11169
G1 X115.909 Y129.547 E7.1342
G1 X116.056 Y128.074 E7.17753
G1 X116.181 Y127.315 E7.20004
G1 X116.563 Y125.954 E7.24141
G1 X116.818 Y125.229 E7.26391
G1 X117.44 Y123.911 E7.30657
G1 X117.811 Y123.238 E7.32906
G1 X118.676 Y122.025 E7.37266
G1 X119.165 Y121.431 E7.39518
G1 X120.179 Y120.426 E7.43697
G0 F3600 X120.458 Y120.713
G1 F1500 X121.021 Y120.22 E7.45887
G1 X122.147 Y119.429 E7.49915
G1 X122.784 Y119.038 E7.52102
G1 X124.205 Y118.389 E7.56675
G1 X125.214 Y118.036 E7.59804
G1 X126.079 Y117.806 E7.62423
G1 X126.811 Y117.653 E7.64612
G1 X128.254 Y117.523 E7.68853
G1 X151.318 Y117.5 E8.36359
G1 X152.044 Y117.538 E8.38486
G1 X152.937 Y117.631 E8.41114
G1 X153.676 Y117.748 E8.43304
G1 X155.095 Y118.135 E8.47609
G1 X155.802 Y118.378 E8.49797
G1 X157.121 Y119.006 E8.54073
G1 X157.774 Y119.371 E8.56263
G1 X158.905 Y120.171 E8.60317
G1 X159.487 Y120.64 E8.62505
G1 X160.538 Y121.707 E8.66889
G1 X161.026 Y122.274 E8.69078
G1 X161.8 Y123.397 E8.7307
G1 X162.185 Y124.039 E8.75261
G1 X162.767 Y125.287 E8.79292
G1 X163.04 Y125.984 E8.81483
G1 X163.436 Y127.491 E8.86043
G1 X163.577 Y128.225 E8.88231
G1 X163.684 Y129.642 E8.9239
G1 X163.691 Y130.39 E8.94579
G1 X163.562 Y131.754 E8.9859
G1 X163.445 Y132.493 E9.00779
G1 X163.091 Y133.814 E9.04782
G1 X162.852 Y134.522 E9.06969
G1 X162.191 Y135.923 E9.11504
G1 X161.827 Y136.577 E9.13694
G1 X160.997 Y137.743 E9.17883
G1 X160.525 Y138.323 E9.20072
G1 X159.54 Y139.295 E9.24122
G1 X158.975 Y139.785 E9.26311
G1 X157.818 Y140.591 E9.30438
G1 X157.179 Y140.979 E9.32626
G1 X155.846 Y141.591 E9.3692
G1 X155.147 Y141.857 E9.39109
G1 X153.723 Y142.23 E9.43417
G1 X152.989 Y142.374 E9.45606
G1 X151.94 Y142.474 E9.48691
G1 X151.34 Y142.5 E9.50448
G1 X128.665 Y142.5 E10.16816
G1 X127.119 Y142.38 E10.21354
G1 X126.38 Y142.265 E10.23543
G1 X124.965 Y141.887 E10.2783
G1 X124.256 Y141.648 E10.3002
G1 X123.171 Y141.153 E10.33511
G1 X122.24 Y140.626 E10.36642
G1 X121.432 Y140.083 E10.39491
G1 X120.834 Y139.633 E10.41682
G1 X119.898 Y138.764 E10.4542
G1 X119.383 Y138.222 E10.47608
G1 X118.48 Y137.032 E10.5198
G1 X118.067 Y136.408 E10.54171
G1 X117.349 Y134.984 E10.58838
G1 X117.058 Y134.295 E10.61027
G1 X116.586 Y132.595 E10.66191
G1 X116.437 Y131.862 E10.68381
G1 X116.315 Y130.292 E10.7299
G1 X116.309 Y129.543 E10.75182
G1 X116.454 Y128.119 E10.79371
G1 X116.577 Y127.381 E10.81561
G1 X116.946 Y126.067 E10.85556
G1 X117.195 Y125.362 E10.87744
G1 X117.8 Y124.086 E10.91878
G1 X118.162 Y123.431 E10.94068
G1 X118.998 Y122.263 E10.98272
G1 X119.474 Y121.686 E11.00461
G1 X120.458 Y120.713 E11.04512
G0 F3600 X120.737 Y120.999
G1 F1500 X121.284 Y120.522 E11.06636
G1 X122.374 Y119.758 E11.10532
G1 X122.993 Y119.379 E11.12656
G1 X124.365 Y118.755 E11.17068
G1 X125.317 Y118.423 E11.20019
G1 X126.182 Y118.193 E11.22639
G1 X126.893 Y118.045 E11.24764
G1 X128.284 Y117.922 E11.28851
G1 X151.318 Y117.9 E11.96269
G1 X152.896 Y118.029 E12.00903
G1 X153.613 Y118.143 E12.03028
G1 X154.985 Y118.52 E12.07193
G1 X155.672 Y118.757 E12.0932
G1 X156.945 Y119.365 E12.13449
G1 X157.578 Y119.721 E12.15575
G1 X158.671 Y120.495 E12.19495
G1 X159.236 Y120.952 E12.21622
G1 X160.249 Y121.984 E12.25854
G1 X160.722 Y122.535 E12.2798
G1 X161.469 Y123.621 E12.31838
G1 X161.841 Y124.244 E12.33961
G1 X162.403 Y125.453 E12.37864
G1 X162.667 Y126.13 E12.3999
G1 X163.048 Y127.587 E12.44398
G1 X163.184 Y128.3 E12.46523
G1 X163.285 Y129.667 E12.50535
G1 X163.263 Y130.756 E12.53723
G1 X163.164 Y131.713 E12.56539
G1 X163.05 Y132.43 E12.58664
G1 X162.706 Y133.706 E12.62532
G1 X162.473 Y134.394 E12.64658
G1 X161.831 Y135.748 E12.69044
G1 X161.477 Y136.382 E12.71169
G1 X160.674 Y137.507 E12.75215
G1 X160.215 Y138.07 E12.77341
G1 X159.262 Y139.007 E12.81252
G1 X158.712 Y139.482 E12.83379
G1 X157.593 Y140.261 E12.8737
G1 X156.971 Y140.637 E12.89497
G1 X155.684 Y141.225 E12.93639
G1 X155.005 Y141.483 E12.95765
G1 X153.625 Y141.842 E12.99938
G1 X152.58 Y142.018 E13.0304
G1 X151.34 Y142.1 E13.06677
G1 X128.665 Y142.1 E13.73045
G1 X127.159 Y141.982 E13.77466
G1 X126.442 Y141.87 E13.7959
G1 X125.073 Y141.502 E13.83739
G1 X124.385 Y141.269 E13.85865
G1 X123.341 Y140.791 E13.89226
G1 X122.463 Y140.294 E13.92179
G1 X121.655 Y139.751 E13.95028
G1 X121.075 Y139.313 E13.97156
G1 X120.173 Y138.474 E14.00761
G1 X119.673 Y137.946 E14.0289
G1 X118.801 Y136.794 E14.07118
G1 X118.401 Y136.188 E14.09244
G1 X117.709 Y134.809 E14.13759
G1 X117.427 Y134.14 E14.15884
G1 X116.973 Y132.494 E14.20882
G1 X116.83 Y131.782 E14.23008
G1 X116.714 Y130.267 E14.27455
G1 X116.71 Y129.541 E14.2958
G1 X116.851 Y128.163 E14.33634
G1 X116.972 Y127.447 E14.35759
G1 X117.33 Y126.18 E14.39613
G1 X117.722 Y125.164 E14.428
G1 X118.16 Y124.26 E14.4574
G1 X118.513 Y123.625 E14.47867
G1 X119.32 Y122.5 E14.51919
G1 X120.027 Y121.69 E14.55066
G1 X120.737 Y120.999 E14.57966
G0 F3600 X121.016 Y121.286
G1 F1500 X121.823 Y120.623 E14.61023
G1 X122.601 Y120.087 E14.63788
G1 X123.202 Y119.722 E14.65846
G1 X124.526 Y119.122 E14.70101
G1 X125.42 Y118.809 E14.72873
G1 X126.285 Y118.579 E14.75493
G1 X126.974 Y118.437 E14.77552
G1 X128.314 Y118.321 E14.81488
G1 X151.318 Y118.3 E15.48819
G1 X152.854 Y118.426 E15.5333
G1 X153.549 Y118.539 E15.5539
G1 X154.876 Y118.905 E15.59419
G1 X155.541 Y119.136 E15.6148
G1 X156.769 Y119.724 E15.65465
G1 X157.662 Y120.261 E15.68515
G1 X158.437 Y120.82 E15.71312
G1 X158.984 Y121.263 E15.73372
G1 X159.96 Y122.261 E15.77458
G1 X160.418 Y122.796 E15.79519
G1 X161.137 Y123.844 E15.83239
G1 X161.638 Y124.739 E15.86241
G1 X162.039 Y125.619 E15.89071
G1 X162.294 Y126.275 E15.91131
G1 X162.659 Y127.683 E15.95389
G1 X162.79 Y128.375 E15.9745
G1 X162.886 Y129.692 E16.01315
G1 X162.865 Y130.715 E16.0431
G1 X162.766 Y131.672 E16.07126
G1 X162.572 Y132.698 E16.10182
G1 X162.321 Y133.599 E16.12919
G1 X162.093 Y134.265 E16.1498
G1 X161.472 Y135.572 E16.19215
G1 X161.128 Y136.186 E16.21275
G1 X160.351 Y137.272 E16.25183
G1 X159.905 Y137.816 E16.27242
G1 X158.984 Y138.72 E16.3102
G1 X158.174 Y139.379 E16.34076
G1 X157.367 Y139.93 E16.36936
G1 X156.764 Y140.294 E16.38998
G1 X155.522 Y140.86 E16.42992
G1 X154.525 Y141.203 E16.46078
G1 X153.528 Y141.454 E16.49088
G1 X152.546 Y141.619 E16.52002
G1 X151.34 Y141.7 E16.5554
G1 X128.665 Y141.7 E17.21907
G1 X127.199 Y141.584 E17.26211
G1 X126.504 Y141.474 E17.28271
G1 X125.18 Y141.116 E17.32285
G1 X124.208 Y140.756 E17.35319
G1 X123.511 Y140.429 E17.37572
G1 X122.686 Y139.962 E17.40347
G1 X121.878 Y139.419 E17.43196
G1 X121.076 Y138.777 E17.46203
G1 X120.448 Y138.183 E17.48733
G1 X119.964 Y137.671 E17.50796
G1 X119.122 Y136.556 E17.54885
G1 X118.736 Y135.967 E17.56946
G1 X118.069 Y134.634 E17.61309
G1 X117.797 Y133.985 E17.63369
G1 X117.36 Y132.394 E17.68198
G1 X117.223 Y131.704 E17.70257
G1 X117.114 Y130.242 E17.74548
G1 X117.11 Y129.538 E17.76608
G1 X117.249 Y128.208 E17.80522
G1 X117.367 Y127.514 E17.82583
G1 X117.714 Y126.293 E17.86298
G1 X118.082 Y125.339 E17.89291
G1 X118.52 Y124.435 E17.92231
G1 X118.863 Y123.82 E17.94292
G1 X119.642 Y122.738 E17.98194
G1 X120.306 Y121.977 E18.0115
G1 X121.016 Y121.286 E18.0405
G0 F3600 X121.295 Y121.573
G1 F1500 X122.049 Y120.953 E18.06907
G1 X122.827 Y120.417 E18.09672
G1 X123.41 Y120.064 E18.11667
G1 X124.686 Y119.488 E18.15765
G1 X125.523 Y119.196 E18.18359
G1 X126.388 Y118.966 E18.20979
G1 X127.055 Y118.83 E18.22971
G1 X128.344 Y118.719 E18.26758
G1 X151.318 Y118.7 E18.94001
G1 X152.813 Y118.824 E18.98391
G1 X153.8 Y119.015 E19.01334
G1 X154.766 Y119.29 E19.04274
G1 X155.409 Y119.514 E19.06266
G1 X156.592 Y120.083 E19.10109
G1 X157.428 Y120.585 E19.12963
G1 X158.203 Y121.144 E19.1576
G1 X158.731 Y121.574 E19.17753
G1 X159.672 Y122.538 E19.21696
G1 X160.294 Y123.31 E19.24597
G1 X160.805 Y124.068 E19.27273
G1 X161.274 Y124.905 E19.30081
G1 X161.675 Y125.785 E19.32912
G1 X161.92 Y126.42 E19.34904
G1 X162.271 Y127.78 E19.39015
G1 X162.396 Y128.449 E19.41007
G1 X162.487 Y129.717 E19.44728
G1 X162.467 Y130.674 E19.47529
G1 X162.368 Y131.631 E19.50345
G1 X162.186 Y132.59 E19.53202
G1 X161.935 Y133.491 E19.5594
G1 X161.714 Y134.136 E19.57935
G1 X161.112 Y135.397 E19.62025
G1 X160.586 Y136.271 E19.65011
G1 X160.028 Y137.036 E19.67782
G1 X159.37 Y137.791 E19.70713
G1 X158.706 Y138.432 E19.73415
G1 X157.948 Y139.049 E19.76275
G1 X157.141 Y139.6 E19.79135
G1 X156.558 Y139.95 E19.81126
G1 X155.36 Y140.494 E19.84977
