;FLAVOR:Marlin
;TIME:7947
;Filament used:3.65126m
;Layer height: 0.16
;MINX:113.474
;MINY:101.905
;MINZ:0.16
;MAXX:166.528
;MAXY:158.089
;MAXZ:33.28
                          
;Creality Print GCode Generated by CXEngine:NO_MAGE_VERSION_GIT_HEAD_BRANCH
;CXEngine Release Time:2022-09-30 09:53:04
;Gcode Generated Time:2023-03-23 13:49:01
;----------Machine Config--------------
;Machine Name:Sermoon D1
;Machine Height:310
;Machine Width:280
;Machine Depth:260
;Material name:PLA
;Number of Extruders:1
;ExtruderParams[0] Nozzle Diameter1000
;----------Profile Config---------------
;Engine Version:275f99b
;Engine Release Time:2022-09-30 09:42:18
;Layer Height:0.16
;Wall Thickness:1.2
;Top/Bottom Thickness:0.64
;Out Wall Line Width:0.4
;Inner Wall Line Width:0.4
;Inital Layer Height:160
;Wall Line Count:3
;Infill Line Distance:12
;Infill Pattern:grid
;Infill Sparse Density:10
;Infill Wipe Distance:0
;Print Temperature:215
;Bed Temperature:60
;Support Enable:true
;Support Density:30
;Support Angle:53
;Adhesion Type:brim
;machine is belt:false
;machine belt offset:10
;machine belt offset Y:0
;Raft Base Line Spacing:1.6
;Wait Heatup Sync:true
;----------Shell Config----------------
;Outer Wall Wipe Distance:200
;Outer Inset First:false
;Infill Before Walls:false
;Infill Overlap:0.16
;Fill Gaps Between Walls:everywhere
;Minimum Infill Area:0
;Top Surface Skin Layer:0
;Top Layers:4
;Z Seam Alignment:sharpest_corner
;Seam Corner Preference:z_seam_corner_inner
;Z Seam X:140
;Z Seam Y:130
;Horizontal Expansion:0
;Top/Bottom Pattern:zigzag
;Ironing Pattern:zigzag
;Vase Model:false
;----------Support Config----------------
;Support Type:everywhere
;Support Pattern:zigzag
;Support Infill Layer Thickness:0.16
;Minimum Support Area:5
;Enable Support Roof:false
;Support Roof Thickness:0.9
;Support Roof Pattern:lines
;Connect Support Lines:0
;Connect Support ZigZags:1
;Minimum Support X/Y Distance:0.2
;Support Line Distance:1.33
; ---------PrintSpeed & Travel----------
;Enable Print Cool:true
;Avoid Printed Parts Traveling:true
;Enable Retraction:true
;Retraction Distance:0.8
;Retraction Speed:80
;Retraction Prime Speed:80
;Maximum Retraction Count:100
;Minimum Extrusion Distance Window:1
;Z Hop When Retracted:false
;Z Hop Height:0.2
;Retract Before Outer Wall:true
;Print Speed:50
;Infill Speed:50

;Prime Tower Speed:50
;Travel Speed:120
;Initial Layer Speed:25
;Skirt/Brim Speed:25
;Combing Mode:infill
; --------SpecialModel&Mesh Fixes--------
;Union Overlapping Volum:true
;Remove All Holes:false
;Maximum Travel Resolution:0.6
;Maximum Deviation:0.05
;Maximum Model Angle:0.872665
;IS Mold Print:false
;Make Overhang Printable:false
;Enable Coasting:false
;Coasting Volumes:0.06
;Coasting Speed:0.9
;Raft AirGap:0.25
;Layer0 ZOverLap:0.13
;---------------------End of Head--------------------------
M140 S60
M105
M104 S215
M105
M109 S215
M105
M190 S60
M82 ;absolute extrusion mode
M220 S100 ;Reset Feedrate
M221 S100 ;Reset Flowrate

G28 ;Home

G92 E0 ;Reset Extruder
G1 Z2.0 F3000 ;Move Z Axis up
G1 X10.1 Y20 Z0.28 F5000.0 ;Move to start position
G1 X10.1 Y145.0 Z0.28 F1500.0 E15 ;Draw the first line
G1 X10.4 Y145.0 Z0.28 F5000.0 ;Move to side a little
G1 X10.4 Y20 Z0.28 F1500.0 E30 ;Draw the second line
G92 E0  ;Reset Extruder
G1 E-1.0000 F1800 ;Retract a bit
G1 Z2.0 F3000 ;Move Z Axis up
G1 E0.0000 F1800 

G92 E0
G92 E0
G1 F4800 E-0.8

;LAYER_COUNT:208

;LAYER:0
M107
G0 F3600 X118.433 Y112.017 Z0.16
;TYPE:SKIRT
G1 F4800 E0
G1 F1500 X119.028 Y111.498 E0.02311
G1 X119.717 Y111.017 E0.0477
G1 X120.388 Y110.314 E0.07615
G1 X121.955 Y108.869 E0.13854
G1 X123.603 Y107.568 E0.19999
G1 X125.445 Y106.331 E0.26493
G1 X127.309 Y105.287 E0.32746
G1 X129.318 Y104.355 E0.39228
G1 X131.239 Y103.632 E0.45236
G1 X133.227 Y103.044 E0.51304
G1 X133.732 Y102.927 E0.52821
G1 X134.357 Y102.643 E0.5483
G1 X135.105 Y102.39 E0.57142
G1 X137.093 Y101.977 E0.63085
G1 X137.879 Y101.905 E0.65395
G1 X138.669 Y101.912 E0.67707
G1 X139.454 Y101.999 E0.70019
G1 X140.226 Y102.166 E0.72331
G1 X140.977 Y102.409 E0.74641
G1 X141.7 Y102.727 E0.76953
G1 X142.387 Y103.117 E0.79265
G1 X143.031 Y103.574 E0.81576
G1 X143.625 Y104.094 E0.83887
G1 X143.916 Y104.406 E0.85135
G1 X144.278 Y104.68 E0.86464
G1 X145.548 Y104.917 E0.90246
G1 X147.554 Y105.446 E0.96318
G1 X149.466 Y106.119 E1.0225
G1 X151.374 Y106.966 E1.08361
G1 X153.186 Y107.954 E1.14401
G1 X154.892 Y109.07 E1.20368
G1 X154.987 Y109.141 E1.20715
G1 X155.475 Y109.181 E1.22148
G1 X156.252 Y109.325 E1.24461
G1 X157.01 Y109.547 E1.26773
G1 X157.741 Y109.844 E1.29082
G1 X158.439 Y110.214 E1.31395
G1 X159.302 Y110.811 E1.34466
G1 X159.855 Y111.06 E1.36241
G1 X160.538 Y111.456 E1.38552
G1 X161.178 Y111.919 E1.40864
G1 X161.767 Y112.445 E1.43175
G1 X162.22 Y112.927 E1.45111
G1 X162.718 Y113.539 E1.47421
G1 X163.152 Y114.199 E1.49732
G1 X163.553 Y114.98 E1.52302
G1 X164.053 Y116.104 E1.55903
G1 X164.848 Y117.202 E1.5987
G1 X165.439 Y118.133 E1.63098
G1 X165.807 Y118.832 E1.6541
G1 X166.102 Y119.564 E1.6772
G1 X166.322 Y120.322 E1.7003
G1 X166.465 Y121.099 E1.72343
G1 X166.528 Y121.886 E1.74653
G1 X166.511 Y122.676 E1.76966
G1 X166.365 Y123.728 E1.80075
G1 X166.305 Y124.515 E1.82385
G1 X166.166 Y125.293 E1.84698
G1 X165.949 Y126.052 E1.87009
G1 X165.656 Y126.786 E1.89322
G1 X165.512 Y127.063 E1.90236
G1 X165.625 Y128.187 E1.93542
G1 X165.687 Y130.252 E1.99589
G1 X165.585 Y132.303 E2.05599
G1 X165.316 Y134.357 E2.11662
G1 X164.889 Y136.359 E2.17654
G1 X164.299 Y138.337 E2.23695
G1 X163.984 Y139.178 E2.26324
G1 X164.163 Y139.72 E2.27994
G1 X164.333 Y140.491 E2.30305
G1 X164.424 Y141.275 E2.32615
G1 X164.436 Y142.065 E2.34928
G1 X164.368 Y142.851 E2.37237
G1 X164.22 Y143.627 E2.39549
G1 X163.995 Y144.384 E2.41861
G1 X163.695 Y145.114 E2.44171
G1 X163.322 Y145.811 E2.46484
G1 X162.356 Y147.174 E2.51374
G1 X161.833 Y147.765 E2.53684
G1 X161.252 Y148.3 E2.55996
G1 X160.62 Y148.774 E2.58308
G1 X160.306 Y148.961 E2.59378
G1 X159.585 Y149.712 E2.62425
G1 X158.336 Y150.853 E2.67376
G1 X156.946 Y152.015 E2.72679
G1 X156.295 Y152.504 E2.75062
G1 X154.844 Y153.467 E2.80159
G1 X153.312 Y154.386 E2.85388
G1 X152.672 Y154.73 E2.87515
G1 X151.333 Y155.372 E2.91861
G1 X150.678 Y155.651 E2.93945
G1 X148.481 Y156.45 E3.00787
G1 X146.797 Y156.939 E3.0592
G1 X146.327 Y157.048 E3.07332
G1 X145.648 Y157.357 E3.09515
G1 X144.899 Y157.61 E3.11829
G1 X144.13 Y157.785 E3.14138
G1 X142.866 Y158.021 E3.17901
G1 X142.079 Y158.089 E3.20213
G1 X141.29 Y158.077 E3.22523
G1 X140.506 Y157.986 E3.24833
G1 X139.734 Y157.816 E3.27146
G1 X138.984 Y157.568 E3.29459
G1 X138.263 Y157.246 E3.3177
G1 X137.579 Y156.853 E3.34079
G1 X136.937 Y156.393 E3.3639
G1 X136.345 Y155.87 E3.38702
G1 X136.061 Y155.57 E3.39911
G1 X135.735 Y155.323 E3.41109
G1 X134.452 Y155.083 E3.44929
G1 X132.441 Y154.552 E3.51017
G1 X130.53 Y153.879 E3.56947
G1 X128.627 Y153.034 E3.63041
G1 X126.811 Y152.044 E3.69095
G1 X125.106 Y150.929 E3.75057
G1 X125.053 Y150.889 E3.75252
G1 X124.306 Y150.808 E3.77451
G1 X123.534 Y150.645 E3.7976
G1 X122.781 Y150.405 E3.82073
G1 X122.057 Y150.089 E3.84386
G1 X121.369 Y149.702 E3.86696
G1 X120.819 Y149.307 E3.88678
G1 X119.944 Y148.907 E3.91494
G1 X119.269 Y148.496 E3.93807
G1 X118.64 Y148.018 E3.96119
G1 X118.062 Y147.48 E3.9843
G1 X117.542 Y146.886 E4.00741
G1 X117.085 Y146.242 E4.03052
G1 X116.546 Y145.244 E4.06372
G1 X115.961 Y143.941 E4.10553
G1 X115.619 Y143.617 E4.11932
G1 X115.104 Y143.018 E4.14244
G1 X114.652 Y142.371 E4.16554
G1 X114.267 Y141.681 E4.18866
G1 X113.955 Y140.956 E4.21177
G1 X113.717 Y140.203 E4.23488
G1 X113.557 Y139.429 E4.25801
G1 X113.476 Y138.644 E4.28111
G1 X113.474 Y137.854 E4.30423
G1 X113.553 Y137.068 E4.32735
G1 X113.627 Y136.706 E4.33817
G1 X113.614 Y136.424 E4.34643
G1 X113.659 Y135.635 E4.36956
G1 X113.784 Y134.855 E4.39268
G1 X113.987 Y134.092 E4.41579
G1 X114.265 Y133.353 E4.4389
G1 X114.485 Y132.912 E4.45333
G1 X114.375 Y131.812 E4.48568
G1 X114.313 Y129.746 E4.54618
G1 X114.415 Y127.701 E4.60611
G1 X114.685 Y125.637 E4.66703
G1 X115.111 Y123.641 E4.72677
G1 X115.701 Y121.663 E4.78719
G1 X116.031 Y120.782 E4.81472
G1 X115.831 Y120.138 E4.83446
G1 X115.674 Y119.364 E4.85757
G1 X115.597 Y118.578 E4.88069
G1 X115.599 Y117.788 E4.90381
G1 X115.681 Y117.003 E4.92691
G1 X115.843 Y116.23 E4.95003
G1 X116.081 Y115.477 E4.97314
G1 X116.394 Y114.752 E4.99626
G1 X116.78 Y114.063 E5.01937
G1 X117.232 Y113.416 E5.04247
G1 X117.894 Y112.594 E5.07336
G1 X118.433 Y112.017 E5.09647
G0 F3600 X118.755 Y112.264
G1 F1500 X119.339 Y111.764 E5.11898
G1 X119.978 Y111.323 E5.1417
G1 X120.662 Y110.605 E5.17073
G1 X122.207 Y109.18 E5.23224
G1 X123.83 Y107.897 E5.2928
G1 X125.644 Y106.678 E5.35677
G1 X127.481 Y105.648 E5.41841
G1 X129.462 Y104.728 E5.48234
G1 X131.356 Y104.015 E5.54157
G1 X133.317 Y103.433 E5.60144
G1 X133.858 Y103.308 E5.61769
G1 X134.541 Y103 E5.63962
G1 X135.271 Y102.759 E5.66212
G1 X137.189 Y102.367 E5.71942
G1 X137.956 Y102.302 E5.74195
G1 X138.725 Y102.317 E5.76446
G1 X139.488 Y102.411 E5.78696
G1 X140.238 Y102.584 E5.80949
G1 X140.965 Y102.834 E5.83199
G1 X141.663 Y103.158 E5.85452
G1 X142.323 Y103.553 E5.87703
G1 X142.938 Y104.014 E5.89953
G1 X143.503 Y104.536 E5.92204
G1 X143.724 Y104.76 E5.93125
G1 X144.113 Y105.057 E5.94557
G1 X145.45 Y105.305 E5.98537
G1 X147.426 Y105.825 E6.04518
G1 X149.308 Y106.486 E6.10356
G1 X151.186 Y107.319 E6.16369
G1 X152.971 Y108.292 E6.2232
G1 X154.651 Y109.389 E6.28192
G1 X154.836 Y109.523 E6.28861
G1 X155.601 Y109.604 E6.31112
G1 X156.353 Y109.763 E6.33362
G1 X157.085 Y110 E6.35614
G1 X157.788 Y110.312 E6.37865
G1 X158.455 Y110.694 E6.40115
G1 X159.089 Y111.152 E6.42404
G1 X159.708 Y111.434 E6.44395
G1 X160.37 Y111.824 E6.46644
G1 X160.989 Y112.281 E6.48896
G1 X161.923 Y113.195 E6.52721
G1 X162.407 Y113.792 E6.5497
G1 X162.827 Y114.436 E6.57221
G1 X163.188 Y115.143 E6.59544
G1 X163.704 Y116.304 E6.63263
G1 X164.524 Y117.436 E6.67354
G1 X165.095 Y118.337 E6.70476
G1 X165.452 Y119.018 E6.72726
G1 X165.737 Y119.733 E6.74979
G1 X165.947 Y120.473 E6.77231
G1 X166.078 Y121.231 E6.79482
G1 X166.13 Y121.998 E6.81732
G1 X166.102 Y122.767 E6.83985
G1 X165.964 Y123.758 E6.86913
G1 X165.9 Y124.525 E6.89166
G1 X165.758 Y125.28 E6.91414
G1 X165.538 Y126.017 E6.93666
G1 X165.242 Y126.727 E6.95917
G1 X165.099 Y126.989 E6.96791
G1 X165.225 Y128.204 E7.00366
G1 X165.288 Y130.237 E7.06319
G1 X165.188 Y132.256 E7.12236
G1 X164.924 Y134.278 E7.18204
G1 X164.504 Y136.249 E7.24103
G1 X163.924 Y138.197 E7.30052
G1 X163.56 Y139.168 E7.33087
G1 X163.787 Y139.864 E7.35229
G1 X163.948 Y140.616 E7.3748
G1 X164.03 Y141.381 E7.39732
G1 X164.032 Y142.15 E7.41983
G1 X163.954 Y142.915 E7.44234
G1 X163.797 Y143.668 E7.46485
G1 X163.563 Y144.401 E7.48737
G1 X163.254 Y145.105 E7.50987
G1 X162.874 Y145.774 E7.53239
G1 X162.018 Y146.955 E7.57508
G1 X161.505 Y147.527 E7.59757
G1 X160.934 Y148.043 E7.6201
G1 X160.313 Y148.497 E7.64261
G1 X160.045 Y148.654 E7.65171
G1 X159.313 Y149.418 E7.68267
G1 X158.079 Y150.546 E7.73161
G1 X156.689 Y151.708 E7.78463
G1 X156.072 Y152.172 E7.80723
G1 X154.639 Y153.124 E7.85758
G1 X153.107 Y154.043 E7.90987
G1 X152.499 Y154.37 E7.93008
G1 X151.16 Y155.012 E7.97354
G1 X150.539 Y155.276 E7.99329
G1 X148.366 Y156.067 E8.06098
G1 X146.707 Y156.549 E8.11154
G1 X146.165 Y156.684 E8.12789
G1 X145.463 Y156.999 E8.15041
G1 X144.733 Y157.241 E8.17292
G1 X143.981 Y157.405 E8.19545
G1 X142.772 Y157.63 E8.23144
G1 X142.005 Y157.691 E8.25396
G1 X141.236 Y157.672 E8.27648
G1 X140.473 Y157.574 E8.29899
G1 X139.725 Y157.397 E8.32149
G1 X138.999 Y157.143 E8.344
G1 X138.303 Y156.816 E8.36651
G1 X137.645 Y156.417 E8.38903
G1 X137.032 Y155.953 E8.41154
G1 X136.253 Y155.217 E8.4429
G1 X135.901 Y154.945 E8.45592
G1 X134.55 Y154.695 E8.49614
G1 X132.569 Y154.174 E8.55609
G1 X130.688 Y153.512 E8.61445
G1 X128.814 Y152.681 E8.67446
G1 X127.026 Y151.707 E8.73405
G1 X125.347 Y150.609 E8.79277
G1 X125.187 Y150.489 E8.79862
G1 X124.192 Y150.383 E8.82791
G1 X123.443 Y150.205 E8.85044
G1 X122.718 Y149.95 E8.87294
G1 X122.022 Y149.621 E8.89547
G1 X121.365 Y149.222 E8.91797
G1 X120.99 Y148.941 E8.93168
G1 X120.064 Y148.517 E8.96149
G1 X119.412 Y148.108 E8.98402
G1 X118.807 Y147.634 E9.00651
G1 X118.253 Y147.1 E9.02903
G1 X117.758 Y146.511 E9.05155
G1 X117.327 Y145.875 E9.07404
G1 X116.911 Y145.08 E9.1003
G1 X116.294 Y143.706 E9.14439
G1 X115.895 Y143.326 E9.16051
G1 X115.395 Y142.741 E9.18304
G1 X114.959 Y142.108 E9.20553
G1 X114.591 Y141.432 E9.22806
G1 X114.296 Y140.722 E9.25057
G1 X114.075 Y139.985 E9.27309
G1 X113.932 Y139.23 E9.29558
G1 X113.869 Y138.463 E9.3181
G1 X113.885 Y137.694 E9.34061
G1 X114.028 Y136.728 E9.3692
G1 X114.015 Y136.386 E9.37921
G1 X114.064 Y135.619 E9.40171
G1 X114.192 Y134.86 E9.42424
G1 X114.399 Y134.119 E9.44676
G1 X114.681 Y133.404 E9.46925
G1 X114.898 Y132.987 E9.48301
G1 X114.775 Y131.795 E9.51808
G1 X114.712 Y129.761 E9.57765
G1 X114.812 Y127.748 E9.63664
G1 X115.077 Y125.716 E9.69662
G1 X115.496 Y123.751 E9.75542
G1 X116.076 Y121.803 E9.81491
G1 X116.446 Y120.816 E9.84576
G1 X116.209 Y120 E9.87063
G1 X116.061 Y119.245 E9.89315
G1 X115.993 Y118.479 E9.91566
G1 X116.005 Y117.71 E9.93817
G1 X116.096 Y116.946 E9.96069
G1 X116.266 Y116.196 E9.9832
G1 X116.513 Y115.468 E10.0057
G1 X116.835 Y114.769 E10.02822
G1 X117.227 Y114.107 E10.05074
G1 X118.225 Y112.822 E10.09836
G1 X118.755 Y112.264 E10.12089
G0 F3600 X119.075 Y112.511
G1 F1500 X119.648 Y112.031 E10.14277
G1 X120.229 Y111.641 E10.16325
G1 X120.936 Y110.896 E10.19331
G1 X122.458 Y109.491 E10.25394
G1 X124.056 Y108.227 E10.31357
G1 X125.843 Y107.025 E10.37661
G1 X127.653 Y106.01 E10.43734
G1 X129.607 Y105.101 E10.50042
G1 X131.473 Y104.397 E10.55879
G1 X133.407 Y103.823 E10.61784
G1 X134.041 Y103.663 E10.63698
G1 X134.724 Y103.358 E10.65887
G1 X135.436 Y103.129 E10.68076
G1 X137.285 Y102.758 E10.73596
G1 X138.031 Y102.7 E10.75786
G1 X138.778 Y102.722 E10.77973
G1 X139.519 Y102.823 E10.80162
G1 X140.245 Y103.004 E10.82352
G1 X140.948 Y103.26 E10.84542
G1 X141.62 Y103.59 E10.86733
G1 X142.252 Y103.99 E10.88922
G1 X142.838 Y104.455 E10.91112
G1 X143.427 Y105.048 E10.93558
G1 X143.946 Y105.435 E10.95453
G1 X145.353 Y105.693 E10.9964
G1 X147.298 Y106.204 E11.05526
G1 X149.15 Y106.854 E11.11271
G1 X150.999 Y107.672 E11.17188
G1 X152.756 Y108.629 E11.23044
G1 X154.411 Y109.709 E11.28829
G1 X154.7 Y109.927 E11.29888
G1 X154.978 Y109.933 E11.30702
G1 X155.72 Y110.03 E11.32892
G1 X156.447 Y110.206 E11.35081
G1 X157.151 Y110.458 E11.3727
G1 X157.825 Y110.784 E11.39461
G1 X158.46 Y111.179 E11.4165
G1 X158.88 Y111.494 E11.43187
G1 X159.559 Y111.808 E11.45376
G1 X160.201 Y112.192 E11.47566
G1 X160.798 Y112.643 E11.49756
G1 X161.626 Y113.462 E11.53165
G1 X162.096 Y114.044 E11.55354
G1 X162.502 Y114.673 E11.57545
G1 X162.822 Y115.305 E11.59619
G1 X163.356 Y116.505 E11.63463
G1 X164.551 Y118.204 E11.69543
G1 X165.098 Y119.204 E11.72879
G1 X165.372 Y119.9 E11.75068
G1 X165.57 Y120.622 E11.77259
G1 X165.69 Y121.36 E11.79448
G1 X165.731 Y122.107 E11.81638
G1 X165.692 Y122.854 E11.83827
G1 X165.56 Y123.641 E11.86163
G1 X165.495 Y124.532 E11.88777
G1 X165.349 Y125.266 E11.90968
G1 X165.126 Y125.979 E11.93154
G1 X164.827 Y126.665 E11.95345
G1 X164.687 Y126.912 E11.96176
G1 X164.826 Y128.221 E12.00028
G1 X164.888 Y130.222 E12.05888
G1 X164.79 Y132.209 E12.11711
G1 X164.532 Y134.199 E12.17584
G1 X164.12 Y136.14 E12.23392
G1 X163.55 Y138.056 E12.29242
G1 X163.13 Y139.176 E12.32744
G1 X163.412 Y140.008 E12.35315
G1 X163.563 Y140.74 E12.37502
G1 X163.635 Y141.485 E12.39693
G1 X163.627 Y142.233 E12.41883
G1 X163.539 Y142.976 E12.44072
G1 X163.373 Y143.705 E12.46261
G1 X163.129 Y144.413 E12.48453
G1 X162.812 Y145.09 E12.50641
G1 X162.424 Y145.73 E12.52831
G1 X161.681 Y146.736 E12.56492
G1 X161.178 Y147.289 E12.5868
G1 X160.618 Y147.785 E12.60869
G1 X159.782 Y148.348 E12.63819
G1 X159.041 Y149.124 E12.6696
G1 X157.823 Y150.24 E12.71795
G1 X156.433 Y151.402 E12.77097
G1 X155.849 Y151.84 E12.79234
G1 X154.433 Y152.781 E12.8421
G1 X152.901 Y153.7 E12.89439
G1 X152.326 Y154.009 E12.9135
G1 X150.987 Y154.651 E12.95696
G1 X150.399 Y154.901 E12.97566
