;FLAVOR:Marlin
;TIME:9260
;Filament used:5.88111m
;Layer height: 0.16
;MINX:60.361
;MINY:105.686
;MINZ:0.24
;MAXX:152.89
;MAXY:210.186
;MAXZ:13.85
                            
;Creality Print GCode Generated by CXEngine:NO_MAGE_VERSION_GIT_HEAD_BRANCH
;CXEngine Release Time:2022-09-30 09:53:04
;Gcode Generated Time:2023-04-20 08:39:37
;----------Machine Config--------------
;Machine Name:Sermoon D1
;Machine Height:310
;Machine Width:280
;Machine Depth:260
;Material name:cxsw
;Number of Extruders:1
;ExtruderParams[0] Nozzle Diameter1000
;----------Profile Config---------------
;Engine Version:275f99b
;Engine Release Time:2022-09-30 09:42:18
;Layer Height:0.16
;Wall Thickness:1.2
;Top/Bottom Thickness:0.64
;Out Wall Line Width:0.4
;Inner Wall Line Width:0.4
;Inital Layer Height:160
;Wall Line Count:3
;Infill Line Distance:12
;Infill Pattern:grid
;Infill Sparse Density:10
;Infill Wipe Distance:0
;Print Temperature:200
;Bed Temperature:60
;Support Enable:true
;Support Density:30
;Support Angle:53
;Adhesion Type:simpleraft
;machine is belt:false
;machine belt offset:10
;machine belt offset Y:0
;Raft Base Line Spacing:1.6
;Wait Heatup Sync:true
;----------Shell Config----------------
;Outer Wall Wipe Distance:200
;Outer Inset First:false
;Infill Before Walls:false
;Infill Overlap:0.16
;Fill Gaps Between Walls:everywhere
;Minimum Infill Area:0
;Top Surface Skin Layer:0
;Top Layers:4
;Z Seam Alignment:sharpest_corner
;Seam Corner Preference:z_seam_corner_inner
;Z Seam X:140
;Z Seam Y:130
;Horizontal Expansion:0
;Top/Bottom Pattern:zigzag
;Ironing Pattern:zigzag
;Vase Model:false
;----------Support Config----------------
;Support Type:everywhere
;Support Pattern:zigzag
;Support Infill Layer Thickness:0.16
;Minimum Support Area:5
;Enable Support Roof:false
;Support Roof Thickness:0.9
;Support Roof Pattern:lines
;Connect Support Lines:0
;Connect Support ZigZags:1
;Minimum Support X/Y Distance:0.2
;Support Line Distance:1.33
; ---------PrintSpeed & Travel----------
;Enable Print Cool:true
;Avoid Printed Parts Traveling:true
;Enable Retraction:true
;Retraction Distance:0.8
;Retraction Speed:80
;Retraction Prime Speed:80
;Maximum Retraction Count:100
;Minimum Extrusion Distance Window:1
;Z Hop When Retracted:false
;Z Hop Height:0.2
;Retract Before Outer Wall:true
;Print Speed:50
;Infill Speed:50

;Prime Tower Speed:50
;Travel Speed:120
;Initial Layer Speed:25
;Skirt/Brim Speed:25
;Combing Mode:infill
; --------SpecialModel&Mesh Fixes--------
;Union Overlapping Volum:true
;Remove All Holes:false
;Maximum Travel Resolution:0.6
;Maximum Deviation:0.05
;Maximum Model Angle:0.872665
;IS Mold Print:false
;Make Overhang Printable:false
;Enable Coasting:false
;Coasting Volumes:0.06
;Coasting Speed:0.9
;Raft AirGap:0.25
;Layer0 ZOverLap:0.13
;---------------------End of Head--------------------------
M140 S60
M105
M104 S200
M105
M109 S200
M105
M190 S60
M82 ;absolute extrusion mode
M220 S100 ;Reset Feedrate
M221 S100 ;Reset Flowrate

G28 ;Home

G92 E0 ;Reset Extruder
G1 Z2.0 F3000 ;Move Z Axis up
G1 X10.1 Y20 Z0.28 F5000.0 ;Move to start position
G1 X10.1 Y145.0 Z0.28 F1500.0 E15 ;Draw the first line
G1 X10.4 Y145.0 Z0.28 F5000.0 ;Move to side a little
G1 X10.4 Y20 Z0.28 F1500.0 E30 ;Draw the second line
G92 E0  ;Reset Extruder
G1 E-1.0000 F1800 ;Retract a bit
G1 Z2.0 F3000 ;Move Z Axis up
G1 E0.0000 F1800 

G92 E0
G92 E0
G1 F4800 E-0.8

;LAYER_COUNT:81

;LAYER:-4
M107
G0 F7200 X62.4 Y135.711 Z0.24
;TYPE:SUPPORT-INTERFACE
G1 F4800 E0
G1 F1200 X62.4 Y160.909 E2.21255
G1 X62.208 Y160.071 E2.28804
G1 X61.543 Y156.182 E2.63448
G1 X61.124 Y152.342 E2.97366
G1 X60.961 Y148.576 E3.30465
G1 X61.025 Y145.347 E3.58823
G1 X61.345 Y141.574 E3.92072
G1 X61.435 Y140.87 E3.98304
G1 X62.064 Y137.135 E4.31561
G1 X62.846 Y133.821 E4.6146
G1 X63.067 Y133.041 E4.68578
G1 X63.957 Y130.34 E4.93549
G1 X64 Y130.229 E4.94594
G1 X64 Y167.225 E8.19444
G1 X64.383 Y168.592 E8.3191
G1 X65.6 Y172.339 E8.66503
G1 X65.6 Y126.587 E12.68236
G1 X65.957 Y125.898 E12.7505
G1 X67.2 Y123.76 E12.96765
G1 X67.2 Y177.105 E17.6517
G1 X68.594 Y181.149 E18.0273
G1 X68.8 Y181.781 E18.08567
G1 X68.8 Y121.419 E23.38586
G1 X69.637 Y120.274 E23.51039
G1 X70.26 Y119.512 E23.59682
G1 X70.4 Y119.356 E23.61522
G1 X70.4 Y186.786 E29.53603
G1 X71.241 Y189.733 E29.80513
G1 X72 Y193.015 E30.10092
G1 X72 Y117.582 E36.72445
G1 X72.143 Y117.424 E36.74316
G1 X72.715 Y116.842 E36.81481
G1 X73.6 Y116.018 E36.92099
G1 X73.6 Y197.737 E44.09647
G1 X73.88 Y198.42 E44.16128
G1 X74.332 Y199.286 E44.24706
G1 X75.117 Y200.476 E44.37224
G1 X75.2 Y200.573 E44.38345
G1 X75.2 Y114.632 E51.92965
G1 X75.693 Y114.224 E51.98584
G1 X76.8 Y113.42 E52.10597
G1 X76.8 Y202.585 E59.93526
G1 X76.979 Y202.815 E59.96085
G1 X77.643 Y203.519 E60.04583
G1 X78.4 Y204.171 E60.13355
G1 X78.4 Y112.281 E68.20211
G1 X78.951 Y111.926 E68.25967
G1 X80 Y111.319 E68.36609
G1 X80 Y205.35 E76.62264
G1 X80.456 Y205.693 E76.67275
G1 X81.14 Y206.195 E76.74725
G1 X81.6 Y206.469 E76.79426
G1 X81.6 Y110.409 E85.22898
G1 X82.318 Y110.045 E85.29966
G1 X83.2 Y109.652 E85.38445
G1 X83.2 Y207.266 E93.95562
G1 X83.264 Y207.296 E93.96182
G1 X84.165 Y207.597 E94.04523
G1 X84.8 Y207.844 E94.10506
G1 X84.8 Y108.94 E102.7895
G1 X84.946 Y108.875 E102.80353
G1 X85.884 Y108.517 E102.89169
G1 X86.4 Y108.348 E102.93937
G1 X86.4 Y208.415 E111.72593
G1 X87.054 Y208.589 E111.78535
G1 X88 Y208.741 E111.86948
G1 X88 Y107.826 E120.7305
G1 X88.581 Y107.637 E120.78415
G1 X89.513 Y107.387 E120.86888
G1 X89.6 Y107.368 E120.87669
G1 X89.6 Y208.878 E129.78996
G1 X90.521 Y208.969 E129.87122
G0 F7200 X90.521 Y208.968
G1 F1200 X91.2 Y209.025 E129.93105
G1 X91.2 Y145.284 E135.52794
G1 X91.017 Y144.468 E135.60137
G1 X90.929 Y143.383 E135.69696
G1 X91 Y142.261 E135.79567
G1 X91.2 Y141.295 E135.88229
G1 X91.2 Y107.023 E138.89161
G1 X92.298 Y106.787 E138.99022
G1 X92.8 Y106.707 E139.03486
G1 X92.8 Y138.253 E141.80481
G1 X93.565 Y137.473 E141.90074
G1 X94.4 Y136.84 E141.99274
G1 X94.4 Y106.509 E144.65601
G1 X96 Y106.336 E144.79732
G1 X96 Y136.046 E147.40606
G1 X96.447 Y135.874 E147.44811
G1 X97.505 Y135.636 E147.54334
G1 X97.6 Y135.624 E147.55174
G1 X97.6 Y106.312 E150.12554
G1 X97.717 Y106.316 E150.13582
G1 X98.51 Y106.416 E150.206
G1 X99.2 Y106.565 E150.26798
G1 X99.2 Y135.384 E152.79848
G1 X99.809 Y135.267 E152.85294
G1 X100.622 Y135.029 E152.92732
G1 X100.8 Y134.959 E152.94411
G1 X100.8 Y107.126 E155.38804
G1 X100.868 Y107.154 E155.3945
G1 X101.594 Y107.534 E155.46645
G1 X102.291 Y107.986 E155.53939
G1 X102.4 Y108.07 E155.55148
G1 X102.4 Y134.193 E157.84525
G1 X102.407 Y134.189 E157.84596
G1 X103.225 Y133.804 E157.92534
G1 X103.933 Y133.587 E157.99036
G1 X104 Y133.576 E157.99633
G1 X104 Y109.096 E160.14584
G1 X104.104 Y109.148 E160.15605
G1 X104.796 Y109.392 E160.22047
G1 X105.514 Y109.545 E160.28494
G1 X105.6 Y109.553 E160.29252
G1 X105.6 Y133.45 E162.39084
G1 X106.12 Y133.495 E162.43667
G1 X106.837 Y133.647 E162.50102
G1 X107.2 Y133.774 E162.53479
G1 X107.2 Y109.541 E164.66261
G1 X107.701 Y109.456 E164.70723
G1 X108.399 Y109.245 E164.77126
G1 X108.8 Y109.072 E164.80961
G1 X108.8 Y134.647 E167.05527
G1 X109.048 Y134.822 E167.08192
G1 X109.75 Y135.276 E167.15533
G1 X110.4 Y135.618 E167.21982
G1 X110.4 Y108.199 E169.62739
G1 X110.948 Y107.948 E169.68032
G1 X111.715 Y107.673 E169.75186
G1 X112 Y107.598 E169.77774
G1 X112 Y136.215 E172.29051
G1 X112.018 Y136.221 E172.29217
G1 X112.831 Y136.4 E172.36527
G1 X113.6 Y136.496 E172.43332
G1 X113.6 Y107.309 E174.99613
G1 X114.163 Y107.268 E175.0457
G1 X115.009 Y107.276 E175.11999
G1 X115.2 Y107.287 E175.13679
G1 X115.2 Y136.634 E177.71365
G1 X115.748 Y136.712 E177.76225
G1 X116.8 Y136.994 E177.85789
G1 X116.8 Y107.374 E180.45872
G1 X117.711 Y107.423 E180.53883
G1 X118.4 Y107.498 E180.59969
G1 X118.4 Y137.778 E183.25848
G1 X118.795 Y138.02 E183.29915
G1 X119.64 Y138.718 E183.39539
G1 X120.381 Y139.535 E183.49224
G1 X121.009 Y140.465 E183.59077
G1 X121.492 Y141.461 E183.68797
G1 X121.6 Y141.799 E183.71913
G1 X121.6 Y107.992 E186.68761
G1 X121.54 Y107.979 E186.693
G1 X120 Y107.735 E186.82991
G1 X120 Y139.114 E189.5852
;;retract;;
G1 F4800 E188.7852
G0 F7200 X121.051 Y143.002
G0 X121.171 Y143.967
G0 X121.152 Y144.952
G0 X120.997 Y145.91
G0 X120.7 Y146.858
G0 X120.267 Y147.759
G0 X119.737 Y148.552
G0 X119.07 Y149.297
G0 X118.313 Y149.927
G0 X117.47 Y150.447
G0 X116.57 Y150.837
G0 X115.644 Y151.092
G0 X108.699 Y152.683
G0 X108.068 Y152.746
G0 X107.065 Y152.658
G0 X94.4 Y149.754
G1 F4800 E189.5852
G1 F1200 X94.4 Y208.723 E194.76307
G1 X93.733 Y208.874 E194.82312
G1 X92.8 Y208.979 E194.90556
G1 X92.8 Y148.346 E200.22955
G1 X92.86 Y148.424 E200.23819
G1 X93.662 Y149.213 E200.33698
G1 X94.559 Y149.87 E200.43461
G1 X95.52 Y150.383 E200.53026
G1 X96 Y150.559 E200.57515
G1 X96 Y208.425 E205.65618
G1 X96.66 Y208.298 E205.71519
G1 X97.598 Y208.026 E205.80095
G0 F7200 X97.6 Y208.026
G1 F1200 X97.6 Y150.978 E210.81015
G1 X97.661 Y150.99 E210.81561
G1 X98.436 Y151.057 E210.88391
G1 X99.2 Y151.068 E210.951
G1 X99.2 Y207.337 E215.8918
G1 X99.585 Y207.134 E215.93002
G1 X100.8 Y206.533 E216.04904
G1 X100.8 Y151.17 E220.91029
G1 X101.422 Y151.27 E220.96561
G1 X102.208 Y151.469 E221.0368
G1 X102.4 Y151.537 E221.05468
G1 X102.4 Y205.626 E225.80406
G1 X104 Y204.377 E225.98229
G1 X104 Y152.234 E230.5608
G1 X104.438 Y152.481 E230.60495
G1 X105.263 Y152.987 E230.68993
G1 X105.6 Y153.132 E230.72215
G1 X105.6 Y203.51 E235.14568
G1 X106.263 Y203.321 E235.20621
G1 X106.988 Y203.211 E235.2706
G1 X107.2 Y203.207 E235.28922
G1 X107.2 Y153.564 E239.64821
G1 X107.372 Y153.589 E239.66347
G1 X108.104 Y153.609 E239.72777
G1 X108.8 Y153.537 E239.78921
G1 X108.8 Y203.348 E244.16295
G1 X109.164 Y203.433 E244.19577
G1 X109.852 Y203.689 E244.26023
G1 X110.4 Y203.973 E244.31443
G1 X110.4 Y153.041 E248.7866
G1 X111.107 Y152.734 E248.85428
G1 X111.714 Y152.526 E248.91062
G1 X112 Y152.456 E248.93648
G1 X112 Y205.102 E253.55915
G1 X112.366 Y205.366 E253.59878
G1 X112.329 Y205.417 E253.60431
G1 X112.513 Y205.576 E253.62566
G0 F7200 X112.512 Y205.577
G1 F1200 X113.297 Y206.214 E253.71443
G1 X113.6 Y206.41 E253.74611
G1 X113.6 Y152.167 E258.50902
G1 X113.829 Y152.138 E258.52928
G1 X115.03 Y152.052 E258.63501
G1 X115.2 Y152.023 E258.65015
G1 X115.2 Y207.324 E263.50595
G1 X115.306 Y207.379 E263.51644
G1 X116.8 Y207.954 E263.657
G1 X116.8 Y151.652 E268.6007
G1 X117.16 Y151.538 E268.63386
G1 X118.143 Y151.063 E268.72972
G1 X118.4 Y150.889 E268.75697
G1 X118.4 Y208.671 E273.83062
G1 X119.208 Y208.921 E273.90489
G1 X120 Y209.083 E273.97587
G1 X120 Y149.56 E279.20239
G1 X120.608 Y148.825 E279.28615
G1 X121.169 Y147.905 E279.38077
G1 X121.6 Y146.906 E279.4763
G1 X121.6 Y209.273 E284.95255
G1 X122.107 Y209.321 E284.99726
G1 X122.101 Y209.372 E285.00177
G1 X123.182 Y209.54 E285.09783
G1 X123.2 Y209.54 E285.09941
G1 X123.2 Y108.373 E293.98256
G1 X124.8 Y108.801 E294.12799
G1 X124.8 Y209.579 E302.97698
G1 X124.874 Y209.578 E302.98348
G1 X125.653 Y209.508 E303.05215
G1 X126.4 Y209.374 E303.11879
G1 X126.4 Y109.308 E311.90526
G1 X128 Y109.921 E312.05571
G1 X128 Y209.176 E320.77097
G1 X128.488 Y209.113 E320.81418
G1 X129.375 Y208.916 E320.89396
G1 X129.6 Y208.851 E320.91452
G1 X129.6 Y110.577 E329.54365
G1 X129.762 Y110.649 E329.55921
G1 X131.2 Y111.378 E329.70078
G1 X131.2 Y208.259 E338.20758
G1 X132.478 Y207.639 E338.33231
G1 X132.501 Y207.687 E338.33698
G1 X132.764 Y207.583 E338.36181
G1 X132.8 Y207.568 E338.36524
G1 X132.8 Y112.223 E346.73717
G1 X133.211 Y112.46 E346.77883
G1 X134.4 Y113.228 E346.90312
G1 X134.4 Y206.779 E355.11753
G1 X134.989 Y206.412 E355.17847
G1 X135.633 Y205.937 E355.24873
G1 X136 Y205.612 E355.29178
G1 X136 Y114.3 E363.30959
G1 X137.236 Y115.212 E363.44446
G1 X137.6 Y115.517 E363.48616
G1 X137.6 Y204.327 E371.28428
G1 X137.857 Y204.121 E371.3132
G1 X138.506 Y203.494 E371.39244
G1 X139.065 Y202.88 E371.46535
G1 X139.2 Y202.705 E371.48475
G1 X139.2 Y116.886 E379.02024
G1 X139.359 Y117.032 E379.0392
G1 X140.8 Y118.464 E379.21758
G1 X140.8 Y200.46 E386.41738
G1 X141.281 Y199.77 E386.49124
G1 X141.897 Y198.643 E386.60401
G1 X142.282 Y197.737 E386.69045
G1 X142.4 Y197.357 E386.72539
G1 X142.4 Y120.201 E393.50021
G1 X143.873 Y122.001 E393.70444
G1 X144 Y122.175 E393.72335
G1 X144 Y190.998 E399.76648
G1 X144.268 Y189.486 E399.90131
G1 X145.12 Y185.636 E400.24754
G1 X145.6 Y183.801 E400.41409
G1 X145.6 Y124.539 E405.61769
G1 X146.033 Y125.198 E405.68693
G0 F7200 X146.032 Y125.198
G1 F1200 X146.536 Y126.062 E405.77476
G1 X147.2 Y127.348 E405.90184
G1 X147.2 Y177.89 E410.33977
G1 X148.351 Y173.81 E410.71201
G1 X148.8 Y172.109 E410.86648
G1 X148.8 Y130.891 E414.4857
G1 X149.307 Y132.184 E414.60765
G1 X149.583 Y133.002 E414.68346
G1 X150.4 Y135.818 E414.94092
G1 X150.4 Y165.673 E417.56239
G1 X150.945 Y163.233 E417.78192
G1 X151.65 Y159.095 E418.1505
G1 X152.101 Y155.126 E418.50124
G1 X152.29 Y151.736 E418.79937
G1 X152.276 Y148.123 E419.11662
G1 X152.244 Y147.365 E419.18323
G1 X152 Y144.426 E419.44219
G1 X152 Y156.015 E420.45978
;;retract;;
G1 F4800 E419.65978
G0 F600 X152 Y156.015 Z0.47
G0 F7200 X146.612 Y125.399
;TIME_ELAPSED:247.516089

;LAYER:-3
;TYPE:SUPPORT
G1 F4800 E420.45978
G1 F1800 X133.213 Y112 E421.90935
G1 X133.428 Y112.124 E421.92834
G1 X135.805 Y113.658 E422.14475
G1 X137.483 Y114.897 E422.30432
G1 X137.741 Y115.114 E422.3301
G1 X143.313 Y120.686 E422.93291
G1 X144.188 Y121.755 E423.03859
G1 X144.8 Y122.592 E423.11791
G1 X146.378 Y124.996 E423.33789
G1 X146.882 Y125.86 E423.41441
G1 X148.186 Y128.387 E423.63194
G1 X130.243 Y110.444 E425.5731
G1 X129.943 Y110.292 E425.59883
G1 X129.066 Y109.902 E425.67225
G1 X127.802 Y109.417 E425.77582
G1 X149.198 Y130.814 E428.0906
G1 X149.686 Y132.056 E428.19268
G1 X149.962 Y132.874 E428.25872
G1 X150.009 Y133.039 E428.27185
G1 X125.579 Y108.608 E430.91486
G1 X125.365 Y108.538 E430.93208
G1 X123.629 Y108.073 E431.06957
G1 X150.587 Y135.031 E433.98602
G1 X151.038 Y136.583 E434.10965
G1 X151.126 Y136.984 E434.14106
G1 X121.758 Y107.616 E437.31823
G1 X121.612 Y107.585 E437.32965
G1 X120.068 Y107.34 E437.44924
G1 X151.526 Y138.798 E440.85253
G1 X151.76 Y139.853 E440.93519
G1 X151.866 Y140.553 E440.98935
G1 X118.409 Y107.096 E444.6089
G1 X117.754 Y107.025 E444.6593
G1 X116.876 Y106.977 E444.72656
G1 X152.122 Y142.222 E448.53959
G1 X152.334 Y143.609 E448.64693
G1 X152.355 Y143.87 E448.66696
G1 X115.382 Y106.896 E452.66694
G1 X115.013 Y106.876 E452.69521
G1 X114.15 Y106.868 E452.76123
G1 X113.953 Y106.882 E452.77633
G1 X152.483 Y145.412 E456.9447
G1 X152.61 Y146.953 E457.06298
G1 X112.688 Y107.031 E461.38194
G1 X112.423 Y107.075 E461.40249
G1 X111.592 Y107.292 E461.46819
G1 X111.55 Y107.307 E461.47161
G1 X152.676 Y148.433 E465.92082
G1 X152.682 Y149.853 E466.02945
G1 X110.528 Y107.7 E470.58982
G1 X110.02 Y107.934 E470.63261
G1 X109.595 Y108.18 E470.67017
G1 X152.687 Y151.273 E475.33213
G1 X152.69 Y151.734 E475.3674
G1 X152.639 Y152.639 E475.43674
G1 X108.686 Y108.686 E480.19179
G1 X108.262 Y108.869 E480.22712
G1 X107.642 Y109.056 E480.27666
G1 X152.565 Y153.979 E485.13665
G1 X152.499 Y155.159 E485.22706
G1 X152.482 Y155.311 E485.23876
G1 X106.374 Y109.202 E490.22701
G1 X106.253 Y109.208 E490.23628
G1 X105.573 Y109.149 E490.28849
G1 X104.905 Y109.006 E490.34075
G1 X104.685 Y108.927 E490.35863
G1 X152.337 Y156.58 E495.51391
G1 X152.193 Y157.85 E495.61169
G1 X101.242 Y106.898 E501.12388
G1 X101.037 Y106.792 E501.14153
G1 X100.234 Y106.459 E501.20803
G1 X99.409 Y106.2 E501.27418
G1 X99.051 Y106.122 E501.30221
G1 X152.048 Y159.119 E507.03569
G1 X152.044 Y159.162 E507.03899
G1 X151.845 Y160.33 E507.12963
G1 X97.419 Y105.904 E513.0177
G1 X96.889 Y105.886 E513.05827
G1 X96.031 Y105.93 E513.12399
G1 X151.639 Y161.539 E519.13999
G1 X151.433 Y162.747 E519.23374
G1 X94.754 Y106.068 E525.36555
G1 X93.478 Y106.206 E525.46373
G1 X151.2 Y163.928 E531.70838
G1 X150.941 Y165.083 E531.79893
G1 X92.247 Y106.389 E538.14874
G1 X92.223 Y106.394 E538.15062
G1 X91.083 Y106.639 E538.23982
G1 X150.683 Y166.24 E544.68769
G1 X150.425 Y167.396 E544.7783
G1 X89.919 Y106.889 E551.32419
G1 X89.422 Y106.997 E551.3631
G1 X88.783 Y107.168 E551.4137
