;FLAVOR:Marlin
;TIME:23121.1
;Filament used:10.4245m
;Layer height: 0.1
;MINX:71.826
;MINY:76.826
;MINZ:0.1
;MAXX:208.174
;MAXY:183.174
;MAXZ:20.8
                                                                                                                                        

;Creality Print GCode Generated by CXEngine
;CRSLICE_GIT_HASH:594d573
;Creality Print Version : V4.3.3.5403
;CXEngine Release Time:2023-04-13 15:39:05
;Gcode Generated Time:2023-04-28 14:05:29
;----------Machine Config--------------
;Machine Name:Sermoon D1
;Machine Height:310
;Machine Width:280
;Machine Depth:260
;Material name:cxsw
;Number of Extruders:1
;ExtruderParams[0] Nozzle Diameter:1000
;----------Profile Config---------------
;Layer Height:0.1
;Wall Thickness:0.8
;Top/Bottom Thickness:1
;Out Wall Line Width:0.4
;Inner Wall Line Width:0.4
;Inital Layer Height:100
;Wall Line Count:2
;Infill Line Distance:2
;Infill Pattern:grid
;Infill Sparse Density:20
;Infill Wipe Distance:0
;Print Temperature:215
;Bed Temperature:65
;Support Enable:true
;Support Density:30
;Support Angle:60
;Adhesion Type:skirt
;machine is belt:false
;machine belt offset:10
;machine belt offset Y:0
;Raft Base Line Spacing:1.6
;Wait Heatup Sync:true
;Enable Ironing:false
;----------Shell Config----------------
;Outer Wall Wipe Distance:200
;Outer Inset First:false
;Infill Before Walls:false
;Infill Overlap:0.16
;Fill Gaps Between Walls:everywhere
;Minimum Infill Area:15
;Top Surface Skin Layer:0
;Top Layers:6
;Z Seam Alignment:sharpest_corner
;Seam Corner Preference:z_seam_corner_inner
;Z Seam X:100
;Z Seam Y:100
;Horizontal Expansion:0
;Top/Bottom Pattern:zigzag
;Ironing Pattern:zigzag
;Vase Model:false
;----------Support Config----------------
;Support Type:everywhere
;Support Pattern:zigzag
;Support Infill Layer Thickness:0.1
;Minimum Support Area:5
;Enable Support Roof:true
;Support Roof Thickness:0.8
;Support Roof Pattern:lines
;Connect Support Lines:0
;Connect Support ZigZags:1
;Minimum Support X/Y Distance:0.2
;Support Line Distance:1.33
; ---------PrintSpeed & Travel----------
;Enable Print Cool:true
;Avoid Printed Parts Traveling:true
;Enable Retraction:true
;Retraction Distance:0.8
;Retraction Speed:40
;Retraction Prime Speed:40
;Maximum Retraction Count:100
;Minimum Extrusion Distance Window:2
;Z Hop When Retracted:false
;Z Hop Height:0.2
;Retract Before Outer Wall:true
;Print Speed:50
;Infill Speed:50

;Prime Tower Speed:60
;Travel Speed:100
;Initial Layer Speed:15
;Skirt/Brim Speed:25
;Combing Mode:off
; --------SpecialModel&Mesh Fixes--------
;Union Overlapping Volum:true
;Remove All Holes:false
;Maximum Travel Resolution:0.25
;Maximum Deviation:0.05
;Maximum Model Angle:0.872665
;IS Mold Print:false
;Make Overhang Printable:false
;Enable Coasting:false
;Coasting Volumes:0.064
;Coasting Speed:0.9
;Raft AirGap:0.25
;Layer0 ZOverLap:0.13
;---------------------End of Head--------------------------
M140 S65
M105
M190 S65
M104 S215
M105
M109 S215
M82 ;absolute extrusion mode
M220 S100 ;Reset Feedrate
M221 S100 ;Reset Flowrate

G28 ;Home

G92 E0 ;Reset Extruder
G1 Z2.0 F3000 ;Move Z Axis up
G1 X10.1 Y20 Z0.28 F5000.0 ;Move to start position
G1 X10.1 Y145.0 Z0.28 F1500.0 E15 ;Draw the first line
G1 X10.4 Y145.0 Z0.28 F5000.0 ;Move to side a little
G1 X10.4 Y20 Z0.28 F1500.0 E30 ;Draw the second line
G92 E0  ;Reset Extruder
G1 E-1.0000 F1800 ;Retract a bit
G1 Z2.0 F3000 ;Move Z Axis up
G1 E0.0000 F1800 

G92 E0
G92 E0
G1 F2400 E-0.8
;LAYER_COUNT:208

;LAYER:0
M107
G0 F1500 X73.833 Y78.467 Z0.1
;TYPE:SKIRT
G1 F2400 E0
G1 F1500 X74.198 Y78.157 E0.00796
G1 X74.607 Y77.862 E0.01635
G1 X75.008 Y77.618 E0.02416
G1 X75.461 Y77.39 E0.03259
G1 X75.887 Y77.216 E0.04024
G1 X76.343 Y77.068 E0.04822
G1 X76.681 Y76.986 E0.054
G1 X77.115 Y76.912 E0.06132
G1 X77.732 Y76.85 E0.07163
G1 X78 Y76.834 E0.0761
G1 X78.491 Y76.826 E0.08426
G1 X201.348 Y76.827 E2.12738
G1 X202.194 Y76.843 E2.14146
G1 X202.643 Y76.875 E2.14894
G1 X203.022 Y76.933 E2.15532
G1 X203.592 Y77.055 E2.16501
G1 X204.14 Y77.225 E2.17455
G1 X204.463 Y77.358 E2.18036
G1 X204.856 Y77.552 E2.18765
G1 X205.364 Y77.848 E2.19743
G1 X205.833 Y78.181 E2.20699
G1 X206.165 Y78.465 E2.21426
G1 X206.517 Y78.817 E2.22254
G1 X206.836 Y79.19 E2.2307
G1 X207.138 Y79.608 E2.23928
G1 X207.383 Y80.011 E2.24712
G1 X207.609 Y80.457 E2.25543
G1 X207.777 Y80.866 E2.26279
G1 X207.927 Y81.328 E2.27087
G1 X208.037 Y81.782 E2.27863
G1 X208.116 Y82.277 E2.28697
G1 X208.162 Y82.921 E2.29771
G1 X208.174 Y83.59 E2.30883
G1 X208.173 Y176.347 E3.85139
G1 X208.157 Y177.194 E3.86548
G1 X208.125 Y177.644 E3.87298
G1 X208.068 Y178.019 E3.87929
G1 X207.948 Y178.582 E3.88886
G1 X207.782 Y179.122 E3.89826
G1 X207.648 Y179.451 E3.90416
G1 X207.447 Y179.858 E3.91171
G1 X207.152 Y180.363 E3.92144
G1 X206.822 Y180.828 E3.93092
G1 X206.523 Y181.178 E3.93858
G1 X206.159 Y181.541 E3.94713
G1 X205.799 Y181.846 E3.95497
G1 X205.393 Y182.138 E3.96329
G1 X204.992 Y182.382 E3.9711
G1 X204.539 Y182.61 E3.97953
G1 X204.113 Y182.784 E3.98718
G1 X203.657 Y182.932 E3.99515
G1 X203.319 Y183.014 E4.00094
G1 X202.885 Y183.088 E4.00826
G1 X202.268 Y183.15 E4.01857
G1 X202 Y183.166 E4.02304
G1 X201.509 Y183.174 E4.0312
G1 X78.652 Y183.173 E6.07432
G1 X77.806 Y183.157 E6.0884
G1 X77.357 Y183.125 E6.09588
G1 X76.978 Y183.067 E6.10226
G1 X76.408 Y182.945 E6.11195
G1 X75.864 Y182.777 E6.12142
G1 X75.542 Y182.645 E6.12721
G1 X75.135 Y182.443 E6.13476
G1 X74.626 Y182.144 E6.14458
G1 X74.17 Y181.82 E6.15388
G1 X73.823 Y181.524 E6.16147
G1 X73.458 Y181.158 E6.17006
G1 X73.153 Y180.798 E6.17791
G1 X72.86 Y180.391 E6.18625
G1 X72.623 Y180.001 E6.19384
G1 X72.402 Y179.564 E6.20198
G1 X72.225 Y179.137 E6.20967
G1 X72.072 Y178.669 E6.21786
G1 X71.987 Y178.32 E6.22383
G1 X71.912 Y177.884 E6.23119
G1 X71.85 Y177.269 E6.24147
G1 X71.834 Y177 E6.24595
G1 X71.826 Y176.509 E6.25412
G1 X71.827 Y83.652 E7.79833
G1 X71.843 Y82.806 E7.81241
G1 X71.875 Y82.357 E7.81989
G1 X71.932 Y81.98 E7.82623
G1 X72.053 Y81.413 E7.83587
G1 X72.224 Y80.863 E7.84545
G1 X72.359 Y80.535 E7.85135
G1 X72.553 Y80.142 E7.85864
G1 X72.846 Y79.639 E7.86832
G1 X73.178 Y79.171 E7.87786
G1 X73.472 Y78.827 E7.88539
G1 X73.833 Y78.467 E7.89387
;;retract;;
G1 F2400 E7.09387
;MESH:
G0 F1500 X76.025 Y83.74
;TYPE:WALL-INNER
G1 F2400 E7.89387
G1 F942.4 X75.965 Y83.493 E7.8979
G1 F1028.6 X75.926 Y83.133 E7.90317
G1 F1087.6 X75.938 Y82.765 E7.90824
G1 F1094.2 X76.003 Y82.434 E7.91285
G1 F1090.9 X76.146 Y82.063 E7.91831
G1 F1094.2 X76.32 Y81.782 E7.92283
G1 X76.536 Y81.529 E7.92738
G1 F1100.9 X76.857 Y81.266 E7.93302
G1 X77.162 Y81.101 E7.93774
G1 F1090.9 X77.721 Y80.946 E7.94569
G1 F1074.6 X78.226 Y80.932 E7.95273
G1 F1002.8 X78.617 Y80.998 E7.95865
G1 F925.4 X79.22 Y81.277 E7.96939
G1 F900 X79.523 Y81.546 E7.97613
G1 X79.829 Y81.957 E7.98465
G1 X79.998 Y82.322 E7.99134
G1 X80.084 Y82.672 E7.99734
G1 X80.11 Y83.024 E8.00321
G1 X80.053 Y83.487 E8.01096
G1 X79.942 Y83.825 E8.01688
G1 X79.803 Y84.101 E8.02202
G1 X79.589 Y84.393 E8.02804
G1 X79.025 Y84.847 E8.04008
G1 X78.318 Y85.086 E8.05249
G1 X77.901 Y85.103 E8.05943
G1 X77.401 Y85.019 E8.06786
G1 X77.012 Y84.866 E8.07482
G1 X76.393 Y84.367 E8.08804
G1 X76.177 Y84.062 E8.09425
G1 F902.3 X76.025 Y83.74 E8.10016
;;retract;;
G1 F2400 E7.30016
G0 F1500 X77.175 Y83.178
G0 X78.185 Y82.177
G0 X78.412 Y81.339
;TYPE:WALL-OUTER
G1 F2400 E8.10016
G1 F900 X78.924 Y81.561 E8.10944
G1 X79.202 Y81.785 E8.11538
G1 X79.533 Y82.24 E8.12473
G1 X79.637 Y82.504 E8.12945
G1 X79.694 Y82.759 E8.1338
G1 X79.709 Y83.078 E8.13911
G1 X79.67 Y83.371 E8.14403
G1 X79.584 Y83.647 E8.14883
G1 X79.462 Y83.891 E8.15337
G1 X79.288 Y84.129 E8.15827
G1 X78.84 Y84.493 E8.16787
G1 X78.284 Y84.688 E8.17767
G1 X77.967 Y84.709 E8.18295
G1 X77.467 Y84.625 E8.19139
G1 X77.131 Y84.474 E8.19751
G1 X76.748 Y84.163 E8.20572
G1 X76.534 Y83.881 E8.2116
G1 X76.406 Y83.623 E8.21639
G1 X76.324 Y83.346 E8.2212
G1 X76.291 Y83.087 E8.22554
G1 X76.301 Y82.793 E8.23043
G1 X76.367 Y82.489 E8.2356
G1 X76.481 Y82.211 E8.2406
G1 X76.634 Y81.97 E8.24535
G1 X76.807 Y81.773 E8.24971
G1 X77.025 Y81.592 E8.25442
G1 X77.326 Y81.429 E8.26011
G1 X77.846 Y81.295 E8.26904
G1 X78.163 Y81.296 E8.27431
G1 X78.412 Y81.339 E8.27852
G0 F1500 X78.595 Y81.418
;;retract;;
G1 F2400 E7.47852
G0 F1500 X169.949 Y83.498
;TYPE:WALL-INNER
G1 F2400 E8.27852
G1 F900 X169.894 Y83.137 E8.28459
G1 X169.901 Y82.782 E8.29049
G1 X169.996 Y82.34 E8.29801
G1 X170.142 Y82 E8.30417
G1 X170.333 Y81.707 E8.30998
G1 X170.504 Y81.512 E8.3143
G1 X170.773 Y81.282 E8.32018
G1 X171.224 Y81.042 E8.32868
G1 F973 X171.764 Y80.932 E8.33716
G1 F1061.9 X172.226 Y80.932 E8.34367
G1 F1002.8 X172.617 Y80.998 E8.34958
G1 F925.4 X173.22 Y81.277 E8.36033
G1 F900 X173.523 Y81.546 E8.36707
G1 X173.829 Y81.957 E8.37559
G1 X173.998 Y82.322 E8.38228
G1 X174.084 Y82.672 E8.38827
G1 X174.11 Y83.024 E8.39414
G1 X174.053 Y83.487 E8.4019
G1 X173.942 Y83.825 E8.40782
G1 X173.803 Y84.101 E8.41296
G1 X173.593 Y84.389 E8.41888
G1 X173.007 Y84.857 E8.43135
G1 X172.435 Y85.065 E8.44148
G1 X172.023 Y85.111 E8.44837
G1 X171.359 Y85.011 E8.45954
G1 X170.958 Y84.839 E8.46679
G1 X170.422 Y84.402 E8.47829
G1 X170.205 Y84.11 E8.48434
G1 X170.062 Y83.835 E8.4895
G1 X169.949 Y83.498 E8.49541
;;retract;;
G1 F2400 E7.69541
G0 F1500 X171.175 Y83.178
G0 X172.185 Y82.177
G0 X172.412 Y81.339
;TYPE:WALL-OUTER
G1 F2400 E8.49541
G1 F900 X172.924 Y81.561 E8.50469
G1 X173.202 Y81.785 E8.51063
G1 X173.533 Y82.24 E8.51999
G1 X173.637 Y82.504 E8.5247
G1 X173.694 Y82.759 E8.52905
G1 X173.709 Y83.078 E8.53436
G1 X173.67 Y83.371 E8.53928
G1 X173.584 Y83.647 E8.54408
G1 X173.462 Y83.891 E8.54862
G1 X173.289 Y84.128 E8.5535
G1 X172.834 Y84.496 E8.56323
G1 X172.312 Y84.684 E8.57246
G1 X171.967 Y84.709 E8.57821
G1 X171.453 Y84.622 E8.58688
G1 X171.153 Y84.489 E8.59234
G1 X170.748 Y84.163 E8.60098
G1 X170.543 Y83.897 E8.60657
G1 X170.406 Y83.622 E8.61168
G1 X170.331 Y83.38 E8.61589
G1 X170.291 Y83.087 E8.62081
G1 X170.305 Y82.766 E8.62615
G1 X170.358 Y82.52 E8.63034
G1 X170.466 Y82.242 E8.6353
G1 X170.634 Y81.971 E8.6406
G1 X170.805 Y81.776 E8.64491
G1 X171.056 Y81.571 E8.6503
G1 X171.326 Y81.429 E8.65537
G1 X171.827 Y81.297 E8.66399
G1 X172.163 Y81.296 E8.66958
G1 X172.412 Y81.339 E8.67378
G0 F1500 X172.595 Y81.418
;;retract;;
G1 F2400 E7.87378
G0 F1500 X203.033 Y81.204
;TYPE:WALL-INNER
G1 F2400 E8.67378
G1 F1100.9 X203.551 Y81.63 E8.6829
G1 F1097.6 X203.764 Y81.918 E8.68778
G1 X203.92 Y82.224 E8.69247
G1 X204.022 Y82.549 E8.69711
G1 F1094.2 X204.069 Y82.899 E8.70194
G1 F1068.2 X204.059 Y83.295 E8.70749
G1 F967.7 X203.998 Y83.664 E8.71328
G1 F900 X203.855 Y84.003 E8.7194
G1 X203.662 Y84.298 E8.72526
G1 X203.42 Y84.561 E8.7312
G1 X203.225 Y84.722 E8.73541
G1 X202.907 Y84.908 E8.74153
G1 X202.287 Y85.09 E8.75228
G1 X201.767 Y85.103 E8.76093
G1 X201.373 Y85.016 E8.76764
G1 X200.853 Y84.781 E8.77713
G1 X200.501 Y84.495 E8.78467
G1 X200.129 Y83.991 E8.79509
G1 X199.997 Y83.683 E8.80066
G1 X199.911 Y83.333 E8.80666
G1 X199.885 Y82.981 E8.81253
G1 X199.921 Y82.617 E8.81861
G1 X200.054 Y82.178 E8.82624
G1 X200.222 Y81.859 E8.83223
G1 X200.478 Y81.542 E8.83901
G1 X201.044 Y81.125 E8.8507
G1 F932.6 X201.53 Y80.965 E8.85891
G1 F1022.7 X201.969 Y80.927 E8.86536
G1 F1084.3 X202.302 Y80.951 E8.86997
G1 F1068.2 X202.627 Y81.04 E8.87469
G1 F1077.8 X203.033 Y81.204 E8.88077
G0 F1500 X202.843 Y81.515
;TYPE:WALL-OUTER
G1 F900 X203.273 Y81.867 E8.89001
G1 X203.453 Y82.109 E8.89503
G1 X203.583 Y82.364 E8.89979
G1 X203.667 Y82.635 E8.9045
G1 X203.705 Y82.928 E8.90942
G1 X203.692 Y83.231 E8.91446
G1 X203.637 Y83.485 E8.91878
G1 X203.515 Y83.792 E8.92428
G1 X203.361 Y84.034 E8.92905
G1 X203.19 Y84.229 E8.93336
G1 X202.941 Y84.433 E8.93871
G1 X202.669 Y84.576 E8.94382
G1 X202.185 Y84.704 E8.95215
G1 X201.835 Y84.709 E8.95797
G1 X201.584 Y84.666 E8.96221
G1 X201.052 Y84.434 E8.97186
G1 X200.819 Y84.249 E8.97681
G1 X200.462 Y83.765 E8.98681
G1 X200.358 Y83.501 E8.99153
G1 X200.301 Y83.246 E8.99587
G1 X200.286 Y82.927 E9.00118
G1 X200.325 Y82.631 E9.00615
G1 X200.412 Y82.356 E9.01094
G1 X200.544 Y82.096 E9.01579
G1 X200.731 Y81.852 E9.0209
G1 X201.121 Y81.534 E9.02927
G1 X201.661 Y81.328 E9.03888
G1 X201.982 Y81.293 E9.04425
G1 X202.271 Y81.316 E9.04908
G1 X202.843 Y81.515 E9.05915
G0 F1500 X202.997 Y81.641
;;retract;;
G1 F2400 E8.25915
G0 F1500 X200.436 Y175.57
;TYPE:WALL-INNER
G1 F2400 E9.05915
G1 F900 X201.044 Y175.115 E9.07178
G1 X201.676 Y174.909 E9.08283
G1 X202.04 Y174.885 E9.0889
G1 X202.455 Y174.94 E9.09586
G1 X202.938 Y175.111 E9.10438
G1 X203.499 Y175.522 E9.11595
G1 X203.764 Y175.845 E9.12289
G1 X203.933 Y176.16 E9.12884
G1 F937.5 X204.031 Y176.497 E9.13444
G1 F1025.6 X204.073 Y176.934 E9.14085
G1 F1087.6 X204.06 Y177.23 E9.14493
G1 F1090.9 X203.974 Y177.629 E9.15052
G1 F1084.3 X203.85 Y177.933 E9.15506
G1 X203.692 Y178.191 E9.15923
G1 X203.466 Y178.462 E9.1641
G1 F1090.9 X203.142 Y178.728 E9.16985
G1 F1094.2 X202.834 Y178.895 E9.17465
G1 F1084.3 X202.274 Y179.051 E9.18267
G1 F1071.4 X201.869 Y179.069 E9.18833
G1 F978.3 X201.373 Y179.007 E9.19598
G1 F900 X200.774 Y178.717 E9.20705
G1 X200.472 Y178.449 E9.21376
G1 X200.166 Y178.038 E9.22229
G1 X199.997 Y177.673 E9.22897
G1 X199.911 Y177.323 E9.23497
G1 X199.885 Y176.971 E9.24084
G1 X199.921 Y176.607 E9.24692
G1 X200.054 Y176.168 E9.25455
G1 X200.195 Y175.889 E9.25975
G1 X200.436 Y175.57 E9.2664
G0 F1500 X200.325 Y176.621
;TYPE:WALL-OUTER
G1 F900 X200.412 Y176.346 E9.27119
G1 X200.535 Y176.099 E9.27578
G1 X200.731 Y175.842 E9.28116
G1 X201.18 Y175.491 E9.29063
G1 X201.661 Y175.318 E9.29913
G1 X201.972 Y175.284 E9.30434
G1 X202.271 Y175.306 E9.30932
G1 X202.864 Y175.521 E9.31981
G1 X203.247 Y175.832 E9.32802
G1 X203.461 Y176.114 E9.33391
G1 X203.576 Y176.341 E9.33814
G1 X203.671 Y176.647 E9.34347
G1 X203.706 Y176.934 E9.34827
G1 X203.695 Y177.202 E9.35273
G1 X203.637 Y177.478 E9.35742
G1 X203.53 Y177.753 E9.36233
G1 X203.375 Y178.006 E9.36727
G1 X203.17 Y178.24 E9.37244
G1 X202.95 Y178.418 E9.37715
G1 X202.669 Y178.566 E9.38243
G1 X202.149 Y178.7 E9.39136
G1 X201.831 Y178.699 E9.39665
G1 X201.536 Y178.641 E9.40165
G1 X201.026 Y178.406 E9.41098
G1 X200.793 Y178.21 E9.41605
G1 X200.462 Y177.755 E9.4254
G1 X200.358 Y177.491 E9.43012
G1 X200.301 Y177.236 E9.43447
G1 X200.286 Y176.917 E9.43978
G1 X200.325 Y176.621 E9.44474
G0 F1500 X200.385 Y176.431
;;retract;;
G1 F2400 E8.64474
G0 F1500 X173.127 Y178.781
;TYPE:WALL-INNER
G1 F2400 E9.44474
G1 F942.4 X172.465 Y179.036 E9.45601
G1 F1034.5 X172.001 Y179.077 E9.46275
G1 F1016.9 X171.403 Y179.009 E9.47161
G1 F927.8 X171.012 Y178.866 E9.47832
G1 F900 X170.394 Y178.367 E9.49153
G1 X170.177 Y178.062 E9.49776
G1 X170.024 Y177.741 E9.50367
G1 X169.927 Y177.396 E9.50963
G1 X169.894 Y177.137 E9.51397
G1 X169.901 Y176.782 E9.51988
G1 X169.996 Y176.34 E9.5274
G1 X170.142 Y176 E9.53355
G1 X170.305 Y175.742 E9.53863
G1 X170.53 Y175.484 E9.54432
G1 X170.808 Y175.255 E9.55031
G1 X171.123 Y175.079 E9.55631
G1 X171.803 Y174.897 E9.56802
G1 X172.154 Y174.894 E9.57385
G1 X172.531 Y174.956 E9.58021
G1 X173.177 Y175.245 E9.59198
G1 X173.494 Y175.51 E9.59885
G1 X173.866 Y176.014 E9.60926
G1 X173.998 Y176.322 E9.61484
G1 X174.084 Y176.672 E9.62083
G1 X174.11 Y177.024 E9.6267
G1 X174.074 Y177.387 E9.63277
G1 X173.979 Y177.732 E9.63872
G1 X173.829 Y178.053 E9.64461
G1 X173.623 Y178.351 E9.65063
G1 X173.127 Y178.781 E9.66155
G0 F1500 X172.302 Y178.686
;TYPE:WALL-OUTER
G1 F900 X171.967 Y178.709 E9.66714
G1 X171.467 Y178.625 E9.67557
G1 X171.131 Y178.474 E9.68169
G1 X170.748 Y178.163 E9.6899
G1 X170.534 Y177.881 E9.69578
G1 X170.406 Y177.623 E9.70057
G1 X170.331 Y177.379 E9.70482
G1 X170.291 Y177.087 E9.70972
G1 X170.305 Y176.766 E9.71506
G1 X170.358 Y176.52 E9.71925
G1 X170.466 Y176.242 E9.72421
G1 X170.625 Y175.982 E9.72928
G1 X170.814 Y175.766 E9.73405
G1 X171.047 Y175.576 E9.73905
G1 X171.315 Y175.432 E9.74411
G1 X171.834 Y175.296 E9.75303
G1 X172.147 Y175.294 E9.75824
G1 X172.429 Y175.343 E9.763
G1 X172.942 Y175.57 E9.77233
G1 X173.175 Y175.755 E9.77727
G1 X173.508 Y176.196 E9.78646
G1 X173.627 Y176.472 E9.79146
G1 X173.694 Y176.759 E9.79636
