;FLAVOR:Marlin
;TIME:21133.3
;Filament used:13.7521m
;Layer height: 0.15
;MINX:95.33
;MINY:112.416
;MINZ:0.15
;MAXX:184.67
;MAXY:147.584
;MAXZ:54
                                                                                                                                          

;Creality Print GCode Generated by CXEngine
;CRSLICE_GIT_HASH:594d573
;Creality Print Version : V4.3.3.5403
;CXEngine Release Time:2023-04-13 15:39:05
;Gcode Generated Time:2023-05-06 17:29:11
;----------Machine Config--------------
;Machine Name:Sermoon D1
;Machine Height:310
;Machine Width:280
;Machine Depth:260
;Material name:cxsw
;Number of Extruders:1
;ExtruderParams[0] Nozzle Diameter:1000
;----------Profile Config---------------
;Layer Height:0.15
;Wall Thickness:0.8
;Top/Bottom Thickness:1
;Out Wall Line Width:0.4
;Inner Wall Line Width:0.4
;Inital Layer Height:150
;Wall Line Count:2
;Infill Line Distance:2
;Infill Pattern:grid
;Infill Sparse Density:60
;Infill Wipe Distance:0
;Print Temperature:215
;Bed Temperature:65
;Support Enable:true
;Support Density:30
;Support Angle:60
;Adhesion Type:skirt
;machine is belt:false
;machine belt offset:10
;machine belt offset Y:0
;Raft Base Line Spacing:1.6
;Wait Heatup Sync:true
;Enable Ironing:false
;----------Shell Config----------------
;Outer Wall Wipe Distance:200
;Outer Inset First:false
;Infill Before Walls:false
;Infill Overlap:0.16
;Fill Gaps Between Walls:everywhere
;Minimum Infill Area:15
;Top Surface Skin Layer:0
;Top Layers:4
;Z Seam Alignment:sharpest_corner
;Seam Corner Preference:z_seam_corner_inner
;Z Seam X:100
;Z Seam Y:100
;Horizontal Expansion:0
;Top/Bottom Pattern:zigzag
;Ironing Pattern:zigzag
;Vase Model:false
;----------Support Config----------------
;Support Type:everywhere
;Support Pattern:zigzag
;Support Infill Layer Thickness:0.15
;Minimum Support Area:5
;Enable Support Roof:true
;Support Roof Thickness:0.8
;Support Roof Pattern:lines
;Connect Support Lines:0
;Connect Support ZigZags:1
;Minimum Support X/Y Distance:0.2
;Support Line Distance:1.33
; ---------PrintSpeed & Travel----------
;Enable Print Cool:true
;Avoid Printed Parts Traveling:true
;Enable Retraction:true
;Retraction Distance:0.8
;Retraction Speed:40
;Retraction Prime Speed:40
;Maximum Retraction Count:100
;Minimum Extrusion Distance Window:2
;Z Hop When Retracted:false
;Z Hop Height:0.2
;Retract Before Outer Wall:true
;Print Speed:50
;Infill Speed:50

;Prime Tower Speed:60
;Travel Speed:100
;Initial Layer Speed:15
;Skirt/Brim Speed:25
;Combing Mode:off
; --------SpecialModel&Mesh Fixes--------
;Union Overlapping Volum:true
;Remove All Holes:false
;Maximum Travel Resolution:0.25
;Maximum Deviation:0.05
;Maximum Model Angle:0.872665
;IS Mold Print:false
;Make Overhang Printable:false
;Enable Coasting:false
;Coasting Volumes:0.064
;Coasting Speed:0.9
;Raft AirGap:0.25
;Layer0 ZOverLap:0.13
;---------------------End of Head--------------------------
M140 S50
M105
M190 S50
M104 S200
M105
M109 S200
M82 ;absolute extrusion mode
M220 S100 ;Reset Feedrate
M221 S100 ;Reset Flowrate

G28 ;Home

G92 E0 ;Reset Extruder
G1 Z2.0 F3000 ;Move Z Axis up
G1 X10.1 Y20 Z0.28 F5000.0 ;Move to start position
G1 X10.1 Y145.0 Z0.28 F1500.0 E15 ;Draw the first line
G1 X10.4 Y145.0 Z0.28 F5000.0 ;Move to side a little
G1 X10.4 Y20 Z0.28 F1500.0 E30 ;Draw the second line
G92 E0  ;Reset Extruder
G1 E-1.0000 F1800 ;Retract a bit
G1 Z2.0 F3000 ;Move Z Axis up
G1 E0.0000 F1800 

G92 E0
G92 E0
G1 F2400 E-0.8
;LAYER_COUNT:360

;LAYER:0
M107
G0 F1500 X96.719 Y113.72 Z0.15
;TYPE:SKIRT
G1 F2400 E0
G1 F1500 X96.384 Y114.098 E0.0126
G1 X96.113 Y114.525 E0.02522
G1 X95.912 Y114.989 E0.03783
G1 X95.786 Y115.478 E0.05043
G1 X95.739 Y115.982 E0.06305
G1 X95.73 Y116.647 E0.07964
G1 X95.731 Y135.729 E0.55564
G1 X95.74 Y136.06 E0.5639
G1 X95.767 Y136.396 E0.57231
G1 X95.873 Y136.89 E0.58492
G1 X96.056 Y137.361 E0.59752
G1 X96.31 Y137.798 E0.61013
G1 X96.631 Y138.189 E0.62275
G1 X97.009 Y138.525 E0.63537
G1 X97.435 Y138.797 E0.64797
G1 X97.898 Y138.999 E0.66057
G1 X98.388 Y139.125 E0.6732
G1 X98.891 Y139.173 E0.6858
G1 X100.276 Y139.194 E0.72035
G1 X103.076 Y139.274 E0.79023
G1 X105.819 Y139.429 E0.85876
G1 X108.529 Y139.661 E0.92661
G1 X111.236 Y139.97 E0.99457
G1 X113.955 Y140.358 E1.06309
G1 X116.681 Y140.826 E1.13208
G1 X119.313 Y141.355 E1.19905
G1 X121.991 Y141.972 E1.2676
G1 X124.661 Y142.668 E1.33643
G1 X127.3 Y143.435 E1.40499
G1 X129.893 Y144.271 E1.47295
G1 X132.463 Y145.179 E1.54094
G1 X135.051 Y146.177 E1.61013
G1 X136.193 Y146.655 E1.64101
G1 X136.911 Y146.943 E1.66031
G1 X137.549 Y147.125 E1.67686
G1 X138.052 Y147.173 E1.68947
G1 X138.759 Y147.184 E1.7071
G1 X140.33 Y147.183 E1.74629
G1 X140.871 Y147.16 E1.7598
G1 X141.515 Y147.097 E1.77594
G1 X144.228 Y146.866 E1.84386
G1 X146.975 Y146.71 E1.9125
G1 X149.728 Y146.632 E1.9812
G1 X152.445 Y146.632 E2.04898
G1 X155.2 Y146.71 E2.11773
G1 X157.943 Y146.864 E2.18626
G1 X160.665 Y147.096 E2.25441
G1 X161.276 Y147.157 E2.26972
G1 X161.544 Y147.173 E2.27642
G1 X162.26 Y147.184 E2.29428
G1 X180.83 Y147.183 E2.75751
G1 X181.151 Y147.174 E2.76552
G1 X181.492 Y147.146 E2.77406
G1 X181.986 Y147.038 E2.78667
G1 X182.457 Y146.855 E2.79928
G1 X182.893 Y146.599 E2.81189
G1 X183.283 Y146.278 E2.82449
G1 X183.618 Y145.899 E2.83711
G1 X183.889 Y145.472 E2.84972
G1 X184.09 Y145.008 E2.86234
G1 X184.215 Y144.518 E2.87495
G1 X184.261 Y144.015 E2.88755
G1 X184.27 Y143.288 E2.90569
G1 X184.269 Y116.256 E3.58
G1 X184.26 Y115.936 E3.58799
G1 X184.233 Y115.601 E3.59637
G1 X184.126 Y115.107 E3.60898
G1 X183.943 Y114.636 E3.62159
G1 X183.688 Y114.199 E3.63421
G1 X183.368 Y113.808 E3.64681
G1 X182.99 Y113.473 E3.65941
G1 X182.564 Y113.201 E3.67202
G1 X182.1 Y112.999 E3.68464
G1 X181.61 Y112.873 E3.69726
G1 X181.107 Y112.826 E3.70987
G1 X180.409 Y112.816 E3.72728
G1 X99.17 Y112.817 E5.75379
G1 X98.849 Y112.826 E5.7618
G1 X98.512 Y112.854 E5.77024
G1 X98.018 Y112.96 E5.78284
G1 X97.547 Y113.144 E5.79546
G1 X97.11 Y113.399 E5.80808
G1 X96.719 Y113.72 E5.8207
G0 X96.327 Y113.547
G1 X96.724 Y113.187 E5.83407
G1 X97.171 Y112.889 E5.84747
G1 X97.656 Y112.661 E5.86084
G1 X98.17 Y112.508 E5.87421
G1 X98.838 Y112.426 E5.891
G1 X99.159 Y112.417 E5.89901
G1 X180.415 Y112.416 E7.92595
G1 X181.113 Y112.426 E7.94337
G1 X181.647 Y112.474 E7.95674
G1 X182.168 Y112.6 E7.97011
G1 X182.665 Y112.803 E7.9835
G1 X183.126 Y113.077 E7.99688
G1 X183.541 Y113.416 E8.01025
G1 X183.901 Y113.814 E8.02363
G1 X184.198 Y114.26 E8.037
G1 X184.426 Y114.746 E8.05039
G1 X184.578 Y115.26 E8.06376
G1 X184.66 Y115.925 E8.08048
G1 X184.669 Y116.245 E8.08846
G1 X184.67 Y143.293 E8.76318
G1 X184.661 Y144.02 E8.78131
G1 X184.614 Y144.554 E8.79469
G1 X184.489 Y145.075 E8.80805
G1 X184.287 Y145.572 E8.82143
G1 X184.014 Y146.034 E8.83482
G1 X183.676 Y146.45 E8.84819
G1 X183.279 Y146.811 E8.86158
G1 X182.833 Y147.109 E8.87496
G1 X182.348 Y147.337 E8.88833
G1 X181.834 Y147.491 E8.90171
G1 X181.162 Y147.574 E8.9186
G1 X180.841 Y147.583 E8.92661
G1 X162.254 Y147.584 E9.39027
G1 X161.538 Y147.573 E9.40813
G1 X161.236 Y147.555 E9.41568
G1 X160.653 Y147.497 E9.43029
G1 X157.889 Y147.262 E9.49949
G1 X155.204 Y147.11 E9.56657
G1 X152.433 Y147.032 E9.63572
G1 X149.739 Y147.032 E9.70292
G1 X146.974 Y147.11 E9.77193
G1 X144.281 Y147.263 E9.83921
G1 X141.547 Y147.496 E9.90766
G1 X140.91 Y147.558 E9.92362
G1 X140.342 Y147.583 E9.93781
G1 X138.753 Y147.584 E9.97744
G1 X138.046 Y147.573 E9.99508
G1 X137.512 Y147.524 E10.00846
G1 X136.762 Y147.314 E10.02789
G1 X135.994 Y147.006 E10.04853
G1 X134.888 Y146.543 E10.07844
G1 X132.323 Y145.554 E10.14701
G1 X129.785 Y144.656 E10.21417
G1 X127.162 Y143.811 E10.28291
G1 X124.563 Y143.056 E10.35042
G1 X121.905 Y142.363 E10.41894
G1 X119.216 Y141.743 E10.48778
G1 X116.6 Y141.218 E10.55434
G1 X113.903 Y140.754 E10.62261
G1 X111.206 Y140.37 E10.69056
G1 X108.486 Y140.059 E10.75885
G1 X105.763 Y139.826 E10.82703
G1 X103.076 Y139.674 E10.89416
G1 X100.26 Y139.594 E10.96444
G1 X98.885 Y139.573 E10.99874
G1 X98.351 Y139.525 E11.01211
G1 X97.83 Y139.398 E11.02549
G1 X97.333 Y139.195 E11.03888
G1 X96.873 Y138.921 E11.05224
G1 X96.458 Y138.581 E11.06562
G1 X96.098 Y138.184 E11.07899
G1 X95.801 Y137.737 E11.09238
G1 X95.574 Y137.251 E11.10576
G1 X95.421 Y136.737 E11.11914
G1 X95.34 Y136.071 E11.13587
G1 X95.331 Y135.74 E11.14413
G1 X95.33 Y116.641 E11.62056
G1 X95.339 Y115.976 E11.63715
G1 X95.387 Y115.442 E11.65052
G1 X95.513 Y114.921 E11.66389
G1 X95.715 Y114.424 E11.67728
G1 X95.988 Y113.963 E11.69064
G1 X96.327 Y113.547 E11.70403
;;retract;;
G1 F2400 E10.90403
G0 F1500 X98.265 Y117.04
G0 X98.61 Y117.04
;TYPE:SUPPORT
G1 F2400 E11.70403
G1 F900 X181.39 Y117.04 E13.35599
G0 F1500 X180.88 Y115.696
G1 F900 X180.88 Y144.304 E13.9269
G0 F1500 X181.39 Y143.64
G1 F900 X161.282 Y143.64 E14.32817
G0 F1500 X162.26 Y144.304
G1 F900 X162.26 Y115.696 E14.89908
G0 F1500 X159.6 Y115.696
G1 F900 X159.6 Y128.957 E15.16371
G0 F1500 X160.409 Y130.34
G1 F900 X167.944 Y130.34 E15.31408
G0 F1500 X167.58 Y130.69
G1 F900 X167.58 Y115.696 E15.6133
G0 F1500 X164.92 Y115.696
G1 F900 X164.92 Y144.304 E16.18421
G0 F1500 X167.58 Y144.304
G1 F900 X167.58 Y137.314 E16.3237
G0 F1500 X168.942 Y138.32
G1 F900 X161.282 Y138.32 E16.47656
G0 F1500 X161.282 Y140.98
G1 F900 X181.39 Y140.98 E16.87784
G0 F1500 X181.39 Y138.32
G1 F900 X173.228 Y138.32 E17.04072
G0 F1500 X172.9 Y138.469
G1 F900 X172.9 Y144.304 E17.15717
G0 F1500 X170.24 Y144.304
G1 F900 X170.24 Y138.76 E17.2678
G0 F1500 X166.554 Y135.66
G1 F900 X161.282 Y135.66 E17.37301
G0 F1500 X161.156 Y133
G1 F900 X166.37 Y133 E17.47706
G0 F1500 X170.24 Y129.257
G1 F900 X170.24 Y115.696 E17.74769
G0 F1500 X172.9 Y115.696
G1 F900 X172.9 Y129.528 E18.02372
G0 F1500 X174.227 Y130.34
G1 F900 X181.39 Y130.34 E18.16666
G0 F1500 X181.39 Y133
G1 F900 X175.801 Y133 E18.2782
G0 F1500 X175.56 Y132.204
G1 F900 X175.56 Y115.696 E18.60763
G0 F1500 X178.22 Y115.696
G1 F900 X178.22 Y144.304 E19.17854
G0 F1500 X175.56 Y144.304
G1 F900 X175.56 Y135.831 E19.34763
G1 X175.619 Y135.66
G1 X181.39 Y135.66 E19.46279
;;retract;;
G1 F2400 E18.66279
G0 F1500 X181.735 Y135.66
G0 X181.735 Y127.68
G0 X181.39 Y127.68
G1 F2400 E19.46279
G1 F900 X158.618 Y127.68 E19.91723
G0 F1500 X156.94 Y126.183
G1 F900 X156.94 Y115.696 E20.12651
G0 F1500 X154.28 Y115.696
G1 F900 X154.28 Y124.856 E20.30931
G0 F1500 X154.757 Y125.02
G1 F900 X181.39 Y125.02 E20.8408
G0 F1500 X181.39 Y122.36
G1 F900 X98.609 Y122.36 E22.49278
G0 F1500 X98.609 Y125.02
G1 F900 X147.437 Y125.02 E23.4672
G0 F1500 X146.3 Y125.547
G1 F900 X146.3 Y115.696 E23.66379
G0 F1500 X143.64 Y115.696
G1 F900 X143.64 Y127.59 E23.90114
G1 X143.556 Y127.68
G1 X98.609 Y127.68 E24.79811
G0 F1500 X98.609 Y130.34
G1 F900 X141.834 Y130.34 E25.66071
G0 F1500 X141.007 Y133
G1 F900 X98.609 Y133 E26.50681
G0 F1500 X98.609 Y135.66
G1 F900 X140.89 Y135.66 E27.35057
G0 F1500 X140.98 Y133.339
G1 F900 X140.98 Y115.696 E27.70266
G0 F1500 X138.32 Y115.696
G1 F900 X138.32 Y144.304 E28.27356
G0 F1500 X137.781 Y143.64
G1 F900 X140.89 Y143.64 E28.3356
G0 F1500 X140.89 Y140.98
G1 F900 X137.781 Y140.98 E28.39765
G0 F1500 X137.374 Y138.32
G1 F900 X140.89 Y138.32 E28.46781
;;retract;;
G1 F2400 E27.66781
G0 F1500 X141.235 Y138.32
G0 X141.223 Y144.637
G0 X137.449 Y144.637
G0 X135.664 Y137.054
G0 X135.66 Y136.677
G1 F2400 E28.46781
G1 F900 X135.66 Y115.696 E28.88651
G0 F1500 X133 Y115.696
G1 F900 X133 Y136.304 E29.29777
G0 F1500 X130.34 Y136.304
G1 F900 X130.34 Y115.696 E29.70902
G0 F1500 X127.68 Y115.696
G1 F900 X127.68 Y136.304 E30.12028
G0 F1500 X125.02 Y136.304
G1 F900 X125.02 Y115.696 E30.53153
G0 F1500 X122.36 Y115.696
G1 F900 X122.36 Y136.304 E30.94279
G0 F1500 X119.7 Y136.304
G1 F900 X119.7 Y115.696 E31.35404
G0 F1500 X117.04 Y115.696
G1 F900 X117.04 Y136.304 E31.7653
G0 F1500 X114.38 Y136.304
G1 F900 X114.38 Y115.696 E32.17655
G0 F1500 X111.72 Y115.696
G1 F900 X111.72 Y136.304 E32.58781
G0 F1500 X109.06 Y136.304
G1 F900 X109.06 Y115.696 E32.99906
G0 F1500 X106.4 Y115.696
G1 F900 X106.4 Y136.304 E33.41032
G0 F1500 X103.74 Y136.304
G1 F900 X103.74 Y115.696 E33.82157
G0 F1500 X101.08 Y115.696
G1 F900 X101.08 Y136.304 E34.23283
;;retract;;
G1 F2400 E33.43283
G0 F1500 X101.08 Y136.649
G0 X98.277 Y136.637
G0 X98.265 Y119.7
G0 X98.609 Y119.7
G1 F2400 E34.23283
G1 F900 X181.39 Y119.7 E35.88481
;;retract;;
G1 F2400 E35.08481
G0 F1500 X181.735 Y119.7
G0 X181.723 Y115.363
G0 X151.62 Y115.351
G0 X151.62 Y115.696
G1 F2400 E35.88481
G1 F900 X151.62 Y124.362 E36.05775
G0 F1500 X148.96 Y124.551
G1 F900 X148.96 Y115.696 E36.23446
;;retract;;
G1 F2400 E35.43446
;MESH:
G0 F1500 X167.336 Y134.156
;TYPE:WALL-INNER
G1 F2400 E36.23446
G1 F900 X167.417 Y134.788 E36.25036
G1 X167.604 Y135.402 E36.26637
G1 X167.887 Y135.963 E36.28204
G1 X168.267 Y136.477 E36.29799
G1 X168.732 Y136.92 E36.31401
G1 X169.252 Y137.273 E36.32968
G1 X169.843 Y137.54 E36.34586
G1 X170.447 Y137.698 E36.36144
G1 X171.086 Y137.753 E36.37743
G1 X171.726 Y137.698 E36.39346
G1 X172.33 Y137.541 E36.40903
G1 X172.92 Y137.273 E36.42519
G1 X173.44 Y136.921 E36.44085
G1 X173.904 Y136.477 E36.45687
G1 X174.284 Y135.963 E36.47282
G1 X174.568 Y135.402 E36.4885
G1 X174.754 Y134.788 E36.50451
G1 X174.836 Y134.153 E36.52048
G1 X174.813 Y133.609 E36.53406
G1 X174.676 Y132.904 E36.55198
G1 X174.436 Y132.306 E36.56805
G1 X174.107 Y131.774 E36.58365
G1 X173.685 Y131.293 E36.59962
G1 X173.187 Y130.891 E36.61558
G1 X172.635 Y130.582 E36.63136
G1 X172.032 Y130.371 E36.6473
G1 X171.398 Y130.261 E36.66335
G1 X170.775 Y130.26 E36.67889
G1 X170.14 Y130.371 E36.69497
G1 X169.538 Y130.582 E36.71088
G1 X168.985 Y130.891 E36.72669
G1 X168.488 Y131.293 E36.74263
G1 X168.066 Y131.773 E36.75857
G1 X167.733 Y132.316 E36.77446
G1 X167.496 Y132.906 E36.79032
G1 X167.364 Y133.521 E36.80601
G1 X167.336 Y134.156 E36.82187
G0 F1500 X166.935 Y134.173
;TYPE:WALL-OUTER
G1 F900 X167.025 Y134.872 E36.83945
G1 X167.232 Y135.552 E36.85718
G1 X167.545 Y136.173 E36.87453
G1 X167.966 Y136.743 E36.89221
G1 X168.48 Y137.233 E36.90992
G1 X169.056 Y137.623 E36.92727
G1 X169.709 Y137.918 E36.94515
G1 X170.379 Y138.094 E36.96243
G1 X171.086 Y138.155 E36.98013
G1 X171.794 Y138.094 E36.99786
G1 X172.464 Y137.919 E37.01513
G1 X173.116 Y137.623 E37.03299
G1 X173.692 Y137.233 E37.05034
G1 X174.206 Y136.743 E37.06806
G1 X174.626 Y136.173 E37.08572
G1 X174.94 Y135.552 E37.10308
G1 X175.147 Y134.872 E37.12081
G1 X175.237 Y134.17 E37.13846
G1 X175.213 Y133.591 E37.15292
G1 X175.06 Y132.786 E37.17336
G1 X174.794 Y132.125 E37.19113
G1 X174.43 Y131.535 E37.20843
G1 X173.963 Y131.003 E37.22609
G1 X173.412 Y130.559 E37.24374
G1 X172.8 Y130.216 E37.26124
G1 X172.133 Y129.982 E37.27887
G1 X171.432 Y129.861 E37.29662
G1 X170.741 Y129.86 E37.31385
G1 X170.039 Y129.982 E37.33163
G1 X169.373 Y130.216 E37.34924
G1 X168.76 Y130.559 E37.36676
G1 X168.21 Y131.003 E37.38439
G1 X167.743 Y131.535 E37.40205
G1 X167.374 Y132.135 E37.41962
G1 X167.112 Y132.789 E37.43719
G1 X166.966 Y133.47 E37.45457
G1 X166.935 Y134.173 E37.47212
G0 F1500 X166.96 Y134.371
G0 X169.947 Y135.14
;TYPE:WALL-INNER
G1 F900 X169.569 Y134.559 E37.48941
G1 X169.47 Y134.02 E37.50308
G1 X169.619 Y133.325 E37.52081
G1 X170.007 Y132.799 E37.53712
G1 X170.625 Y132.451 E37.55481
G1 X171.445 Y132.424 E37.57528
G1 X172.03 Y132.687 E37.59128
G1 X172.501 Y133.221 E37.60904
G1 X172.682 Y133.745 E37.62287
G1 X172.656 Y134.386 E37.63887
G1 X172.337 Y135.025 E37.65669
G1 X171.919 Y135.385 E37.67045
G1 X171.414 Y135.583 E37.68398
G1 X170.866 Y135.6 E37.69765
G1 X170.298 Y135.411 E37.71259
G1 X169.947 Y135.14 E37.72365
;;retract;;
G1 F2400 E36.92365
G0 F1500 X171.751 Y132.98
;TYPE:WALL-OUTER
G1 F2400 E37.72365
G1 F900 X172.16 Y133.431 E37.73884
G1 X172.293 Y133.845 E37.74968
G1 X172.272 Y134.269 E37.76027
G1 X172.014 Y134.787 E37.77471
G1 X171.681 Y135.062 E37.78548
G1 X171.28 Y135.201 E37.79607
G1 X170.883 Y135.2 E37.80597
G1 X170.511 Y135.071 E37.81579
G1 X170.197 Y134.828 E37.8257
G1 X169.965 Y134.474 E37.83626
G1 X169.871 Y134.073 E37.84653
G1 X170.006 Y133.444 E37.86258
G1 X170.234 Y133.133 E37.8722
G1 X170.79 Y132.82 E37.88811
G1 X171.409 Y132.827 E37.90355
